!!!COM: Haydn, Franz Joseph
!!!OPR: London Symphonies
!!!OTL: Symphony no. 93 in D major
!!!SCT: Hob. I:93
!!!OMV: 4
!!!OMD: Finale. Presto ma non troppo
!!!ODT: 1791///
!!!MPD: 1792/02/17/
**kern	**kern	**kern	**kern	**kern	**kern	**kern	**kern	**kern	**kern	**kern	**kern	**kern	**kern	**kern	**kern
*ITrd7c12	*	*	*	*	*	*ITrd-1c-2	*ITrd-1c-2	*ITrd-1c-2	*ITrd-1c-2	*	*	*	*	*	*
*Icbass	*Icello	*Iviola	*Ivioln	*Ivioln	*Itimpa	*Itromp	*Itromp	*Icor	*Icor	*Ifagot	*Ifagot	*Ioboe	*Ioboe	*Iflt	*Iflt
*I"Basso	*I"Violoncello	*I"Viola	*I"Violino II	*I"Violino I	*I"Timpani	*I"Tromba 2 in D	*I"Tromba 1 in D	*I"Corno 2 in D	*I"Corno 1 in D	*I"Fagotto 2	*I"Fagotto 1	*I"Oboe 2	*I"Oboe 1	*I"Flauto 2	*I"Flauto 1
*	*	*	*I#2	*I#1	*	*I#2	*I#1	*I#2	*I#1	*I#2	*I#1	*I#2	*I#1	*I#2	*I#1
*>[A,A,B,B,C]	*>[A,A,B,B,C]	*>[A,A,B,B,C]	*>[A,A,B,B,C]	*>[A,A,B,B,C]	*>[A,A,B,B,C]	*>[A,A,B,B,C]	*>[A,A,B,B,C]	*>[A,A,B,B,C]	*>[A,A,B,B,C]	*>[A,A,B,B,C]	*>[A,A,B,B,C]	*>[A,A,B,B,C]	*>[A,A,B,B,C]	*>[A,A,B,B,C]	*>[A,A,B,B,C]
*>norep[A,B,C]	*>norep[A,B,C]	*>norep[A,B,C]	*>norep[A,B,C]	*>norep[A,B,C]	*>norep[A,B,C]	*>norep[A,B,C]	*>norep[A,B,C]	*>norep[A,B,C]	*>norep[A,B,C]	*>norep[A,B,C]	*>norep[A,B,C]	*>norep[A,B,C]	*>norep[A,B,C]	*>norep[A,B,C]	*>norep[A,B,C]
*staff10	*staff10	*staff9	*staff8	*staff7	*staff6	*staff5	*staff5	*staff4	*staff4	*staff3	*staff3	*staff2	*staff2	*staff1	*staff1
*clefF4	*clefF4	*clefC3	*clefG2	*clefG2	*clefF4	*clefG2	*clefG2	*clefG2	*clefG2	*clefF4	*clefF4	*clefG2	*clefG2	*clefG2	*clefG2
*k[f#c#]	*k[f#c#]	*k[f#c#]	*k[f#c#]	*k[f#c#]	*k[f#c#]	*k[f#c#g#d#]	*k[f#c#g#d#]	*k[f#c#g#d#]	*k[f#c#g#d#]	*k[f#c#]	*k[f#c#]	*k[f#c#]	*k[f#c#]	*k[f#c#]	*k[f#c#]
*M2/4	*M2/4	*M2/4	*M2/4	*M2/4	*M2/4	*M2/4	*M2/4	*M2/4	*M2/4	*M2/4	*M2/4	*M2/4	*M2/4	*M2/4	*M2/4
*MM168	*MM168	*MM168	*MM168	*MM168	*MM168	*MM168	*MM168	*MM168	*MM168	*MM168	*MM168	*MM168	*MM168	*MM168	*MM168
*>A	*>A	*>A	*>A	*>A	*>A	*>A	*>A	*>A	*>A	*>A	*>A	*>A	*>A	*>A	*>A
4r	4r	4r	4r	8a'	4r	4r	4r	4r	4r	4r	4r	4r	4r	4r	4r
.	.	.	.	8a'	.	.	.	.	.	.	.	.	.	.	.
=1	=1	=1	=1	=1	=1	=1	=1	=1	=1	=1	=1	=1	=1	=1	=1
.	.	.	.	16ddQ	.	.	.	.	.	.	.	.	.	.	.
.	.	.	.	16eeQ	.	.	.	.	.	.	.	.	.	.	.
8D	8d	8d	8f#	4ff#	2r	2r	2r	2r	2r	2r	2r	2r	2r	2r	2r
8r	8r	8r	8r	.	.	.	.	.	.	.	.	.	.	.	.
8D	8d	8d	8g	16ee	.	.	.	.	.	.	.	.	.	.	.
.	.	.	.	16dd	.	.	.	.	.	.	.	.	.	.	.
8r	8r	8r	8r	16cc#	.	.	.	.	.	.	.	.	.	.	.
.	.	.	.	16b	.	.	.	.	.	.	.	.	.	.	.
=2	=2	=2	=2	=2	=2	=2	=2	=2	=2	=2	=2	=2	=2	=2	=2
4.D	4.d	4.d	4.f#	4.a	2r	2r	2r	2r	2r	2r	2r	2r	2r	2r	2r
8D	8d	8d	8e#'	8g#'	.	.	.	.	.	.	.	.	.	.	.
=3	=3	=3	=3	=3	=3	=3	=3	=3	=3	=3	=3	=3	=3	=3	=3
.	.	.	.	8bq	.	.	.	.	.	.	.	.	.	.	.
8D	8d	8d	8f#	8a	2r	2r	2r	2r	2r	2r	2r	2r	2r	2r	2r
8D	8d	8d	8e#	8g#	.	.	.	.	.	.	.	.	.	.	.
8D	8d	8d	8f#	8a	.	.	.	.	.	.	.	.	.	.	.
8D	8d	8d	8gn	8b	.	.	.	.	.	.	.	.	.	.	.
=4	=4	=4	=4	=4	=4	=4	=4	=4	=4	=4	=4	=4	=4	=4	=4
4D	4d	4d	4f#	4a	2r	2r	2r	2r	2r	2r	2r	2r	2r	2r	2r
4r	4r	4r	4r	8d'	.	.	.	.	.	.	.	.	.	.	.
.	.	.	.	8d'	.	.	.	.	.	.	.	.	.	.	.
=5	=5	=5	=5	=5	=5	=5	=5	=5	=5	=5	=5	=5	=5	=5	=5
.	.	.	.	16eQ	.	.	.	.	.	.	.	.	.	.	.
.	.	.	.	16f#Q	.	.	.	.	.	.	.	.	.	.	.
2AA#	2A#	2A#	2c#	4g	2r	2r	2r	2r	2r	2r	2r	2r	2r	2r	2r
.	.	.	.	16f#	.	.	.	.	.	.	.	.	.	.	.
.	.	.	.	16e	.	.	.	.	.	.	.	.	.	.	.
.	.	.	.	16d	.	.	.	.	.	.	.	.	.	.	.
.	.	.	.	16c#	.	.	.	.	.	.	.	.	.	.	.
=6	=6	=6	=6	=6	=6	=6	=6	=6	=6	=6	=6	=6	=6	=6	=6
4.BB	4.B	4.B	4.d	4.d	2r	2r	2r	2r	2r	2r	2r	2r	2r	2r	2r
8AA'	8An'	8F#'	8cn'	8d#	.	.	.	.	.	.	.	.	.	.	.
=7	=7	=7	=7	=7	=7	=7	=7	=7	=7	=7	=7	=7	=7	=7	=7
8GG	8G	8G	8B	8e	2r	2r	2r	2r	2r	2r	2r	2r	2r	2r	2r
8DD#	8D#	8A	8A	8f#	.	.	.	.	.	.	.	.	.	.	.
8EE	8E	8B	8G	8g	.	.	.	.	.	.	.	.	.	.	.
8GGG	8GG	8B'	8e	8b	.	.	.	.	.	.	.	.	.	.	.
=8	=8	=8	=8	=8	=8	=8	=8	=8	=8	=8	=8	=8	=8	=8	=8
4AAA	4AA	4A	8d	8f#	2r	2r	2r	2r	2r	2r	2r	2r	2r	2r	2r
.	.	.	8c#X	8e	.	.	.	.	.	.	.	.	.	.	.
4r	4r	4r	4r	8a'	.	.	.	.	.	.	.	.	.	.	.
.	.	.	.	8a'	.	.	.	.	.	.	.	.	.	.	.
=9	=9	=9	=9	=9	=9	=9	=9	=9	=9	=9	=9	=9	=9	=9	=9
.	.	.	.	16ddQ	.	.	.	.	.	.	.	.	.	.	.
.	.	.	.	16eeQ	.	.	.	.	.	.	.	.	.	.	.
8D	8d	8d	8f#	4ff#	2r	2r	2r	2r	2r	2r	2r	2r	2r	2r	2r
8r	8r	8r	8r	.	.	.	.	.	.	.	.	.	.	.	.
8D	8d	8d	8g	16ee	.	.	.	.	.	.	.	.	.	.	.
.	.	.	.	16dd	.	.	.	.	.	.	.	.	.	.	.
8r	8r	8r	8r	16cc#	.	.	.	.	.	.	.	.	.	.	.
.	.	.	.	16b	.	.	.	.	.	.	.	.	.	.	.
=10	=10	=10	=10	=10	=10	=10	=10	=10	=10	=10	=10	=10	=10	=10	=10
4.D	4.d	4.d	4.f#	4.a	2r	2r	2r	2r	2r	2r	2r	2r	2r	2r	2r
8D	8d	8d	8e#'	8g#'	.	.	.	.	.	.	.	.	.	.	.
=11	=11	=11	=11	=11	=11	=11	=11	=11	=11	=11	=11	=11	=11	=11	=11
.	.	.	.	8bq	.	.	.	.	.	.	.	.	.	.	.
8D	8d	8d	8f#	8a	2r	2r	2r	2r	2r	2r	2r	2r	2r	2r	2r
8D	8d	8d	8e#	8g#	.	.	.	.	.	.	.	.	.	.	.
8D	8d	8d	8f#	8a	.	.	.	.	.	.	.	.	.	.	.
8D	8d	8d	8gn	8b	.	.	.	.	.	.	.	.	.	.	.
=12	=12	=12	=12	=12	=12	=12	=12	=12	=12	=12	=12	=12	=12	=12	=12
4D	4d	4d	4f#	4a	2r	2r	2r	2r	2r	2r	2r	2r	2r	2r	2r
4r	4r	4r	4r	8d'	.	.	.	.	.	.	.	.	.	.	.
.	.	.	.	8d'	.	.	.	.	.	.	.	.	.	.	.
=13	=13	=13	=13	=13	=13	=13	=13	=13	=13	=13	=13	=13	=13	=13	=13
2BBB-	2BB-	2G	2d	4g	2r	2r	2r	2r	2r	2r	2r	2r	2r	2r	2r
.	.	.	.	8e'	.	.	.	.	.	.	.	.	.	.	.
.	.	.	.	8e'	.	.	.	.	.	.	.	.	.	.	.
=14	=14	=14	=14	=14	=14	=14	=14	=14	=14	=14	=14	=14	=14	=14	=14
4AAA	4AA	2A	2c# 2e	4cc#	2r	2r	2r	2r	2r	2r	2r	2r	2r	2r	2r
4GGG	4GG	.	.	8a'	.	.	.	.	.	.	.	.	.	.	.
.	.	.	.	8a'	.	.	.	.	.	.	.	.	.	.	.
=15	=15	=15	=15	=15	=15	=15	=15	=15	=15	=15	=15	=15	=15	=15	=15
8FFF#	8FF#	8A	8d'	8aa	2r	2r	2r	2r	2r	2r	2r	2r	2r	2r	2r
8GGG	8GG	8B	8e'	8aa	.	.	.	.	.	.	.	.	.	.	.
8AAA	8AA	8A	16f#	16aa	.	.	.	.	.	.	.	.	.	.	.
.	.	.	16e	16gg	.	.	.	.	.	.	.	.	.	.	.
8AAA	8AA	8A	16d	16ff#	.	.	.	.	.	.	.	.	.	.	.
.	.	.	16c#	16ee	.	.	.	.	.	.	.	.	.	.	.
=16	=16	=16	=16	=16	=16	=16	=16	=16	=16	=16	=16	=16	=16	=16	=16
4DD	4D	4F#	4d	4dd	4r	4r	4r	4r	4r	4r	4r	4r	4r	4r	4r
=:||:	=:||:	=:||:	=:||:	=:||:	=:||:	=:||:	=:||:	=:||:	=:||:	=:||:	=:||:	=:||:	=:||:	=:||:	=:||:
*>B	*>B	*>B	*>B	*>B	*>B	*>B	*>B	*>B	*>B	*>B	*>B	*>B	*>B	*>B	*>B
4r	4r	4r	8A	4r	4r	4r	4r	4r	4r	8A	8A	4r	4r	8a	8a
.	.	.	8A	.	.	.	.	.	.	8A	8A	.	.	8a	8a
=17	=17	=17	=17	=17	=17	=17	=17	=17	=17	=17	=17	=17	=17	=17	=17
2r	2r	2r	4g	4r	4AA	4a	4ee	4a	4ee	8e	8e	2r	4r	4.cc#	4.cc#
.	.	.	.	.	.	.	.	.	.	8e	8e	.	.	.	.
.	.	.	16g'	8a	4r	4ryy	4r	4ryy	4r	16e'	16e'	.	8a	.	.
.	.	.	16f#'	.	.	.	.	.	.	16d'	16d'	.	.	.	.
.	.	.	16e'	8a	.	.	.	.	.	16c#'	16c#'	.	8a	8dd	8dd
.	.	.	16d'	.	.	.	.	.	.	16B'	16B'	.	.	.	.
=18	=18	=18	=18	=18	=18	=18	=18	=18	=18	=18	=18	=18	=18	=18	=18
2r	4r	4r	4c#	8gg	4AA	4a	4ee	4a	4ee	4A	4A	4r	8ee	4ee	4ee
.	.	.	.	8gg	.	.	.	.	.	.	.	.	8ee	.	.
.	8A	8A	4r	16gg'	4r	4ryy	4r	4ryy	4r	8A	8A	8a	16ee'	8a	8a
.	.	.	.	16ff#'	.	.	.	.	.	.	.	.	16dd'	.	.
.	8A	8A	.	16ee'	.	.	.	.	.	8A	8A	8a	16cc#'	8a	8a
.	.	.	.	16dd'	.	.	.	.	.	.	.	.	16b'	.	.
=19	=19	=19	=19	=19	=19	=19	=19	=19	=19	=19	=19	=19	=19	=19	=19
2r	8g	8g	4r	4cc#	4AA	4a	4ee	4a	4ee	8e	8e	8ee	4a	4.ccc#	4.ccc#
.	8g	8g	.	.	.	.	.	.	.	8e	8e	8ee	.	.	.
.	16g'	16g'	8a	8a	4r	4ryy	4r	4ryy	4r	16e'	16e'	16ee	8a	.	.
.	16f#'	16f#'	.	.	.	.	.	.	.	16d'	16d'	16dd	.	.	.
.	16e'	16e'	8a	8a	.	.	.	.	.	16c#'	16c#'	16cc#	8a	8ddd	8ddd
.	16d'	16d'	.	.	.	.	.	.	.	16B'	16B'	16b	.	.	.
=20	=20	=20	=20	=20	=20	=20	=20	=20	=20	=20	=20	=20	=20	=20	=20
4r	4c#	4c#	8gg	8bb	4AA	4a	4ee	4a	4ee	4A	4A	8a	8bb	4eee	4eee
.	.	.	8gg	8bb	.	.	.	.	.	.	.	8gg	8bb	.	.
8AAA	8AA	8A	16gg'	16bb'	4r	4ryy	4r	4ryy	4r	8AA	8AA	16gg'y	16bb'	8a	8a
.	.	.	16ff#'	16aa'	.	.	.	.	.	.	.	16ff#'y	16aa'	.	.
8AAA	8AA	8A	16ee'	16gg'	.	.	.	.	.	8AA	8AA	16ee'y	16gg'	8a	8a
.	.	.	16dd'	16ff#'	.	.	.	.	.	.	.	16dd'y	16ff#'	.	.
=21	=21	=21	=21	=21	=21	=21	=21	=21	=21	=21	=21	=21	=21	=21	=21
8GG	8G	[2A	4.cc#	4.ee	4AA	4a	4ee	4a	4ee	8G	8G	4.cc#	4.ee	2aa	2aa
8GG	8G	.	.	.	.	.	.	.	.	8G	8G	.	.	.	.
16GG'	16G'	.	.	.	4r	4ryy	4r	4ryy	4r	16G'	16G'	.	.	.	.
16FF#'	16F#'	.	.	.	.	.	.	.	.	16F#'	16F#'	.	.	.	.
16EE'	16E'	.	8dd	8ff#	.	.	.	.	.	16E'	16E'	8dd	8ff#	.	.
16DD'	16D'	.	.	.	.	.	.	.	.	16D'	16D'	.	.	.	.
=22	=22	=22	=22	=22	=22	=22	=22	=22	=22	=22	=22	=22	=22	=22	=22
4.CC#	4.C#	2A_	4.ee	4.gg	4.AA	4.A	4.a	4.a	4.aa	4C#	4C#	4.ee	4.gg	4.gg	4.gg
.	.	.	.	.	.	.	.	.	.	4r	4r	.	.	.	.
8AAA	8AA	.	8dd#	8ff#	8AA	8A	8a	8a	8aa	.	.	8dd#	8ff#	8ff#	8ff#
=23	=23	=23	=23	=23	=23	=23	=23	=23	=23	=23	=23	=23	=23	=23	=23
8AAA	8AA	8A]	8ee'	8gg'	8AA	8A	8a	8a	8aa	8r	8r	8ee'y	8gg'	8gg'	8gg'
8AAA	8AA	8A	8dd#'	8ff#'	8AA	8A	8a	8a	8aa	8AA	8AA	8dd#'y	8ff#'	8ff#'	8ff#'
8AAA	8AA	8A	8ee'	8gg'	8AA	8A	8a	8a	8aa	8AA	8AA	8ee'y	8gg'	8gg'	8gg'
8AAA	8AA	8A	8ff#'	8aa'	8AA	8A	8a	8a	8aa	8AA	8AA	8ff#'y	8aa'	8aa'	8aa'
=24	=24	=24	=24	=24	=24	=24	=24	=24	=24	=24	=24	=24	=24	=24	=24
8AAA	8AA	8C#	8ee	8gg	8AA	8A	8a	8a	8aa	8AA	8AA	8ee	8gg	8gg	8gg
8r;	8r;	8r;	8r;	8r;	8r;	8ryy	8r;	8ryy	8r;	8r;	8r;	8ryy	8r;	8r;	8r;
4r	4r	4r	4r	8a'	4r	4ryy	4r	4ryy	4r	4r	4r	4ryy	4r	4r	4r
.	.	.	.	8a'	.	.	.	.	.	.	.	.	.	.	.
=25	=25	=25	=25	=25	=25	=25	=25	=25	=25	=25	=25	=25	=25	=25	=25
2DD	2D	2a	[2d	4ffn	2r	2r	2r	2r	2r	2r	2r	2r	2r	2r	2r
.	.	.	.	16ee	.	.	.	.	.	.	.	.	.	.	.
.	.	.	.	16dd	.	.	.	.	.	.	.	.	.	.	.
.	.	.	.	16ccn	.	.	.	.	.	.	.	.	.	.	.
.	.	.	.	16b-	.	.	.	.	.	.	.	.	.	.	.
=26	=26	=26	=26	=26	=26	=26	=26	=26	=26	=26	=26	=26	=26	=26	=26
2EE	2E	2B	2d]	8a	2r	2r	2r	2r	2r	2r	2r	2r	2r	2r	2r
.	.	.	.	8g#	.	.	.	.	.	.	.	.	.	.	.
.	.	.	.	8gn'	.	.	.	.	.	.	.	.	.	.	.
.	.	.	.	8g'	.	.	.	.	.	.	.	.	.	.	.
=27	=27	=27	=27	=27	=27	=27	=27	=27	=27	=27	=27	=27	=27	=27	=27
2AAA	2AA	2g	2c#	4ee	2r	2r	2r	2A	2a	2r	2r	2r	2r	2r	2r
.	.	.	.	16dd	.	.	.	.	.	.	.	.	.	.	.
.	.	.	.	16cc#X	.	.	.	.	.	.	.	.	.	.	.
.	.	.	.	16b-	.	.	.	.	.	.	.	.	.	.	.
.	.	.	.	16a	.	.	.	.	.	.	.	.	.	.	.
=28	=28	=28	=28	=28	=28	=28	=28	=28	=28	=28	=28	=28	=28	=28	=28
[2DD	[2D	2A	2cn	8g	2r	2r	2r	4d	4dd	2r	2r	2r	2r	2r	2r
.	.	.	.	8f#X	.	.	.	.	.	.	.	.	.	.	.
.	.	.	.	8dd'	.	.	.	4ryy	4r	.	.	.	.	.	.
.	.	.	.	8dd'	.	.	.	.	.	.	.	.	.	.	.
=29	=29	=29	=29	=29	=29	=29	=29	=29	=29	=29	=29	=29	=29	=29	=29
2DD_	2D_	4.B-	4.B-	8a	2r	2r	2r	2r	2r	2r	2r	2r	2r	2r	2r
.	.	.	.	8g	.	.	.	.	.	.	.	.	.	.	.
.	.	.	.	8dd'	.	.	.	.	.	.	.	.	.	.	.
.	.	8G	8g	8dd'	.	.	.	.	.	.	.	.	.	.	.
=30	=30	=30	=30	=30	=30	=30	=30	=30	=30	=30	=30	=30	=30	=30	=30
2DD]	2D]	2D	2f#	8b-	2r	2r	2r	2r	2r	2r	2r	2r	2r	2r	2r
.	.	.	.	8a	.	.	.	.	.	.	.	.	.	.	.
.	.	.	.	8dd'	.	.	.	.	.	.	.	.	.	.	.
.	.	.	.	8dd'	.	.	.	.	.	.	.	.	.	.	.
=31	=31	=31	=31	=31	=31	=31	=31	=31	=31	=31	=31	=31	=31	=31	=31
4GG	4G	4r	8a	8ccn	2r	2r	2r	2r	2r	4r	4r	4r	4r	4r	4r
.	.	.	8g	8b-	.	.	.	.	.	.	.	.	.	.	.
8DD	8D	8d	8d	8d	.	.	.	.	.	8D	8D	8dd	8dd	8dd	8dd
8DD	8D	8d	8d	8d	.	.	.	.	.	8D	8D	8dd	8dd	8dd	8dd
=32	=32	=32	=32	=32	=32	=32	=32	=32	=32	=32	=32	=32	=32	=32	=32
16GGQ	16GQ	16gQ	16gQ	16gQ	.	.	.	.	.	16GQ	16GQ	16ggQ	16ggQ	16ggQ	16ggQ
16AAQ	16AQ	16aQ	16aQ	16aQ	.	.	.	.	.	16AQ	16AQ	16aaQ	16aaQ	16aaQ	16aaQ
4BB-	4B-	4b-	4b-	4b-	2r	2r	2r	2r	2r	4B-	4B-	4bb-	4bb-	4bb-	4bb-
16GGQ	16GQ	16gQ	16gQ	16gQ	.	.	.	.	.	16GQ	16GQ	16ggQ	16ggQ	16ggQ	16ggQ
16AAQ	16AQ	16aQ	16aQ	16aQ	.	.	.	.	.	16AQ	16AQ	16aaQ	16aaQ	16aaQ	16aaQ
4BB-	4B-	4b-	4b-	4b-	.	.	.	.	.	4B-	4B-	4bb-	4bb-	4bb-	4bb-
=33	=33	=33	=33	=33	=33	=33	=33	=33	=33	=33	=33	=33	=33	=33	=33
16GGQ	16GQ	16gQ	16gQ	16gQ	.	.	.	.	.	16GQ	16GQ	16ggQ	16ggQ	16ggQ	16ggQ
16AAQ	16AQ	16aQ	16aQ	16aQ	.	.	.	.	.	16AQ	16AQ	16aaQ	16aaQ	16aaQ	16aaQ
8.BB-	8.B-	8.b-	8.b-	8.b-	2r	2r	2r	2r	2r	8.B-	8.B-	8.bb-	8.bb-	8.bb-	8.bb-
16AA'	16A'	16a'	16a'	16a'	.	.	.	.	.	16A'	16A'	16aa'	16aa'	16aa'	16aa'
16GG'	16G'	16g'	16g'	16g'	.	.	.	.	.	16G'	16G'	16gg'	16gg'	16gg'	16gg'
16FF'	16Fn'	16fn'	16fn'	16fn'	.	.	.	.	.	16Fn'	16Fn'	16ffn'	16ffn'	16ffn'	16ffn'
16EE'	16E'	16e'	16e'	16e'	.	.	.	.	.	16E'	16E'	16ee'	16ee'	16ee'	16ee'
16DD'	16D'	16d'	16d'	16d'	.	.	.	.	.	16D'	16D'	16dd'	16dd'	16dd'	16dd'
=34	=34	=34	=34	=34	=34	=34	=34	=34	=34	=34	=34	=34	=34	=34	=34
4AAA	4AA	4A	4c#	4c#X	4AA	4a	4ee	4a	4ee	2A	2A	[2cc#	2cc#	[2aa	[2aa
4r	4r	4r	8A	8A	4r	4ryy	4r	4ryy	4r	.	.	.	.	.	.
.	.	.	8A	8A	.	.	.	.	.	.	.	.	.	.	.
=35	=35	=35	=35	=35	=35	=35	=35	=35	=35	=35	=35	=35	=35	=35	=35
.	.	.	16c#Q	16c#Q	.	.	.	.	.	.	.	.	.	.	.
.	.	.	16dQ	16dQ	.	.	.	.	.	.	.	.	.	.	.
4AAA	4AA	4E 4c#	4e	4e	4AA	4a	4ee	4a	4ee	2c# 2e	2e	2cc#]	2ee	2aa_	2aa_
4r	4r	4r	8A	8A	4r	4ryy	4r	4ryy	4r	.	.	.	.	.	.
.	.	.	8A	8A	.	.	.	.	.	.	.	.	.	.	.
=36	=36	=36	=36	=36	=36	=36	=36	=36	=36	=36	=36	=36	=36	=36	=36
.	.	.	16c#Q	16eQ	.	.	.	.	.	.	.	.	.	.	.
.	.	.	16dQ	16f#XQ	.	.	.	.	.	.	.	.	.	.	.
4AAA	4AA	4E 4c#	4e	4g	4AA	4a	4ee	4a	4ee	2e	2g	2ee	2gg	2aa]	2aa]
4r	4r	4r	8c#	8e	4r	4ryy	4r	4ryy	4r	.	.	.	.	.	.
.	.	.	8c#	8e	.	.	.	.	.	.	.	.	.	.	.
=37	=37	=37	=37	=37	=37	=37	=37	=37	=37	=37	=37	=37	=37	=37	=37
.	.	.	16c#Q	16aQ	.	.	.	.	.	.	.	.	.	.	.
.	.	.	16dQ	16bQ	.	.	.	.	.	.	.	.	.	.	.
8AAA	8AA	8E 8c#	8e'	8cc#'	8AA	8a	8ee	2r	2r	8A	8c#	8a	8cc#	8ccc#	8ccc#
8r	8r	8r	8c#'	8a'	8r	8ryy	8r	.	.	8ryy	8r	8ryy	8r	8r	8r
.	.	.	16aQ	16cc#Q	.	.	.	.	.	.	.	.	.	.	.
.	.	.	16bQ	16ddQ	.	.	.	.	.	.	.	.	.	.	.
8AAA	8AA	8E 8c#	8cc#'	8ee'	8AA	8a	8ee	.	.	8c#	8e	8cc#	8ee	8eee	8eee
8r	8r	8r	8a'	8cc#'	8r	8ryy	8r	.	.	8ryy	8r	8ryy	8r	8r	8r
=38	=38	=38	=38	=38	=38	=38	=38	=38	=38	=38	=38	=38	=38	=38	=38
.	.	.	16cc#Q	16eeQ	.	.	.	.	.	.	.	.	.	.	.
.	.	.	16ddQ	16ff#Q	.	.	.	.	.	.	.	.	.	.	.
4AAA	4AA	4E 4c#	4ee	4gg	4AA	4a	4ee	[2A	[2a	4e	4g	[2ee	[2gg	2gg	2gg
4r	4r	4r	4r	4r	4r	4ryy	4r	.	.	4ryy	4r	.	.	.	.
=39	=39	=39	=39	=39	=39	=39	=39	=39	=39	=39	=39	=39	=39	=39	=39
2r	2r	2r	2r	2r	2r	2r	2r	2A_	2a_	2r	2r	2ee]	2gg_	2ccc#	2ccc#
=40	=40	=40	=40	=40	=40	=40	=40	=40	=40	=40	=40	=40	=40	=40	=40
2r	2r	2r	2r	2r	2r	2r	2r	2A_	2a_	2r	2r	[2cc#	2gg_	[2eee	[2eee
=41	=41	=41	=41	=41	=41	=41	=41	=41	=41	=41	=41	=41	=41	=41	=41
2r	2r	2r	2r	2r	2r	2r	2r	2A_	2a_	2r	2r	2cc#_	2gg_	2eee_	2eee_
=42	=42	=42	=42	=42	=42	=42	=42	=42	=42	=42	=42	=42	=42	=42	=42
2r	2r	2r	2r	4r	2r	2r	2r	2A]	2a]	4r	4r	2cc#]	2gg]	2eee]	2eee]
.	.	.	.	8a'	.	.	.	.	.	8A'	8A'	.	.	.	.
.	.	.	.	8a'	.	.	.	.	.	8A'	8A'	.	.	.	.
*	*	*	*	*	*	*	*	*clefF4	*clefF4	*	*	*	*	*	*
=43	=43	=43	=43	=43	=43	=43	=43	=43	=43	=43	=43	=43	=43	=43	=43
.	.	.	.	16ddQ	.	.	.	.	.	16dQ	16dQ	.	.	.	.
.	.	.	.	16eeQ	.	.	.	.	.	16eQ	16eQ	.	.	.	.
8D	8d	8d	8f#	4ff#X	2r	2r	2r	[2DD	[2D	4f#	4f#	2r	4ff#	4ddd	4ddd
8r	8r	8r	8r	.	.	.	.	.	.	.	.	.	.	.	.
8D	8d	8d	8g	16ee	.	.	.	.	.	16e	16e	.	4gg	16eee	16eee
.	.	.	.	16dd	.	.	.	.	.	16d	16d	.	.	16ddd	16ddd
8r	8r	8r	8r	16cc#	.	.	.	.	.	16c#	16c#	.	.	16ccc#	16ccc#
.	.	.	.	16b	.	.	.	.	.	16B	16B	.	.	16bb	16bb
=44	=44	=44	=44	=44	=44	=44	=44	=44	=44	=44	=44	=44	=44	=44	=44
4.D	4.d	4.d	4.f#	4.a	2r	2r	2r	2DD_	2D_	4.A	4.A	2r	4.ff#	4.aa	4.aa
8D	8d	8d	8e#'	8g#'	.	.	.	.	.	8G#	8G#	.	8ee#'	8gg#	8gg#
=45	=45	=45	=45	=45	=45	=45	=45	=45	=45	=45	=45	=45	=45	=45	=45
.	.	.	.	8bq	.	.	.	.	.	8Bq	8Bq	.	.	8bbq	8bbq
8D	8d	8d	8f#	8a	2r	2r	2r	2DD_	2D_	8A	8A	2r	8ff#	8aa	8aa
8D	8d	8d	8e#	8g#	.	.	.	.	.	8G#	8G#	.	8ee#	8gg#	8gg#
8D	8d	8d	8f#	8a	.	.	.	.	.	8A	8A	.	8ff#	8aa	8aa
8D	8d	8d	8gn	8b	.	.	.	.	.	8B	8B	.	8ggn	8bb	8bb
=46	=46	=46	=46	=46	=46	=46	=46	=46	=46	=46	=46	=46	=46	=46	=46
4D	4d	4d	4f#	4a	2r	2r	2r	4DD]	4D]	4A	4A	2r	4ff#	4aa	4aa
4r	4r	4r	4r	8d'	.	.	.	4ryy	4r	8D	8D	.	4r	8dd'	8dd'
.	.	.	.	8d'	.	.	.	.	.	8D	8D	.	.	8dd'	8dd'
*	*	*	*	*	*	*	*	*clefG2	*clefG2	*	*	*	*	*	*
=47	=47	=47	=47	=47	=47	=47	=47	=47	=47	=47	=47	=47	=47	=47	=47
2BBB-	2BB-	2G	2d	4g	2r	2r	2r	2r	2r	4G	4G	2r	2r	4gg	4gg
.	.	.	.	8e'	.	.	.	.	.	8E'	8E'	.	.	8ee'	8ee'
.	.	.	.	8e'	.	.	.	.	.	8E'	8E'	.	.	8ee'	8ee'
=48	=48	=48	=48	=48	=48	=48	=48	=48	=48	=48	=48	=48	=48	=48	=48
4AAA	4AA	2A	2c# 2e	4cc#	2r	2r	2r	2r	2r	4c#	4c#	2r	2r	4ccc#	4ccc#
4GGG	4GG	.	.	8a'	.	.	.	.	.	8A'	8A'	.	.	8aa'	8aa'
.	.	.	.	8a'	.	.	.	.	.	8A'	8A'	.	.	8aa'	8aa'
=49	=49	=49	=49	=49	=49	=49	=49	=49	=49	=49	=49	=49	=49	=49	=49
8FFF#	8FF#	8A	8d'	8aa'	2r	2r	2r	2r	2r	8a'	8a'	2r	2r	8ddd'	8ddd'
8GGG	8GG	8B	8e'	8aa'	.	.	.	.	.	8a'	8a'	.	.	8aa'	8aa'
8AAA	8AA	8A	16f#	16aa	.	.	.	.	.	16a	16a	.	.	16aa	16aa
.	.	.	16e	16gg	.	.	.	.	.	16g	16g	.	.	16gg	16gg
8AAA	8AA	8A	16d	16ff#	.	.	.	.	.	16f#	16f#	.	.	16ff#	16ff#
.	.	.	16c#	16ee	.	.	.	.	.	16e	16e	.	.	16ee	16ee
=50	=50	=50	=50	=50	=50	=50	=50	=50	=50	=50	=50	=50	=50	=50	=50
4DD	4D	4F#	4d	4dd	4r	4r	4r	4r	4r	4d	4d	4r	4r	4dd	4dd
=:|	=:|	=:|	=:|	=:|	=:|	=:|	=:|	=:|	=:|	=:|	=:|	=:|	=:|	=:|	=:|
*>C	*>C	*>C	*>C	*>C	*>C	*>C	*>C	*>C	*>C	*>C	*>C	*>C	*>C	*>C	*>C
8BBB	8BB	8B	8b	8b	4r	4r	4r	4r	4r	8BB	8BB	8b	8b	8b	8b
8BBB	8BB	8B	8b	8b	.	.	.	.	.	8BB	8BB	8b	8b	8b	8b
=51	=51	=51	=51	=51	=51	=51	=51	=51	=51	=51	=51	=51	=51	=51	=51
8BB	8B	8b	8bb	8bb	2r	2r	2r	2r	2r	8B	8B	8bb	8bb	8bb	8bb
8BB	8B	8b	8bb	8bb	.	.	.	.	.	8B	8B	8bb	8bb	8bb	8bb
16BB'	16B'	16b'	16bb'	16bb'	.	.	.	.	.	16B'	16B'	16bb'	16bb'	16bb'	16bb'
16AA'	16A'	16a'	16aa'	16aa'	.	.	.	.	.	16A'	16A'	16aa'	16aa'	16aa'	16aa'
16GG'	16G'	16g'	16gg'	16gg'	.	.	.	.	.	16G'	16G'	16gg'	16gg'	16gg'	16gg'
16FF#'	16F#'	16f#'	16ff#'	16ff#'	.	.	.	.	.	16F#'	16F#'	16ff#'	16ff#'	16ff#'	16ff#'
=52	=52	=52	=52	=52	=52	=52	=52	=52	=52	=52	=52	=52	=52	=52	=52
8EE	8E	8e	8ee	8ee	2r	2r	2r	2r	2r	8E	8E	8ee	8ee	8ee	8ee
8r	8r	8r	8r	8r	.	.	.	.	.	8r	8r	8r	8r	8r	8r
8AA	8A	8b	8f# 8dd#	8f# 8dd#	.	.	.	.	.	8BB	8BB	8b	8b	8b	8b
8r	8r	8r	8r	8r	.	.	.	.	.	8BB	8BB	8b	8b	8b	8b
=53	=53	=53	=53	=53	=53	=53	=53	=53	=53	=53	=53	=53	=53	=53	=53
8GG	8G	8b	8g 8b 8ee	8g 8b 8ee	2r	2r	2r	2r	2r	8B	8B	8bb	8bb	8bb	8bb
8r	8r	8r	8r	8r	.	.	.	.	.	8B	8B	8bb	8bb	8bb	8bb
8DD#	8D#	8b	8b 8ff#	8b 8ff#	.	.	.	.	.	16B	16B	16bb	16bb	16bb	16bb
.	.	.	.	.	.	.	.	.	.	16A	16A	16aa	16aa	16aa	16aa
8r	8r	8r	8r	8r	.	.	.	.	.	16G	16G	16gg	16gg	16gg	16gg
.	.	.	.	.	.	.	.	.	.	16F#	16F#	16ff#	16ff#	16ff#	16ff#
=54	=54	=54	=54	=54	=54	=54	=54	=54	=54	=54	=54	=54	=54	=54	=54
8EE	8E	8b	8e 8b 8gg	8e 8b 8gg	4r	4ryy	4r	4ryy	4r	8E	8E	8ee	8ee	8ee	8ee
8r	8r	8r	8r	8r	.	.	.	.	.	8r	8r	8r	8r	8r	8r
8AAA	8AA	8A	8a	8a	8AA	8a	8aa	8a	8aa	8AA	8AA	8a	8a	8a	8a
8AAA	8AA	8A	8a	8a	8AA	8a	8aa	8a	8aa	8AA	8AA	8a	8a	8a	8a
=55	=55	=55	=55	=55	=55	=55	=55	=55	=55	=55	=55	=55	=55	=55	=55
8AA	8A	8a	8aa	8aa	8AA	8a	8aa	8a	8aa	8A	8A	8aa	8aa	8aa	8aa
8AA	8A	8a	8aa	8aa	8r	8ryy	8r	8ryy	8r	8A	8A	8aa	8aa	8aa	8aa
16AA	16A	16a	16aa	16aa	8AA	8a	8aa	8a	8aa	16A	16A	16aa	16aa	16aa	16aa
16GG	16G	16g	16gg	16gg	.	.	.	.	.	16G	16G	16gg	16gg	16gg	16gg
16FF#	16F#	16f#	16ff#	16ff#	8r	8ryy	8r	8ryy	8r	16F#	16F#	16ff#	16ff#	16ff#	16ff#
16EE	16E	16e	16ee	16ee	.	.	.	.	.	16E	16E	16ee	16ee	16ee	16ee
=56	=56	=56	=56	=56	=56	=56	=56	=56	=56	=56	=56	=56	=56	=56	=56
8DD	8D	8d	8dd	8dd	8D	8a	8aa	8a	8aa	8D	8D	8dd	8dd	8dd	8dd
8r	8r	8r	8r	8r	8r	8ryy	8r	8ryy	8r	8r	8r	8r	8r	8r	8r
8GG	8G	8A 8e	8e 8cc#	8e 8cc#	8AA	8a	8ee	8a	8ee	8AA	8AA	8a	8a	8a	8a
8r	8r	8r	8r	8r	8r	8ryy	8r	8ryy	8r	8AA	8AA	8a	8a	8a	8a
=57	=57	=57	=57	=57	=57	=57	=57	=57	=57	=57	=57	=57	=57	=57	=57
8FF#	8F#	8A 8f#	8f# 8dd	8f# 8dd	8D	8dd	8ff#	8dd	8ff#	8A	8A	8aa	8aa	8aa	8aa
8r	8r	8r	8r	8r	8r	8ryy	8r	8ryy	8r	8A	8A	8aa	8aa	8aa	8aa
8CC#	8C#	8A 8g	8a 8ee	8a 8ee	8AA	8a	8ee	8a	8ee	16A	16A	16aa	16aa	16aa	16aa
.	.	.	.	.	.	.	.	.	.	16G	16G	16gg	16gg	16gg	16gg
8r	8r	8r	8r	8r	8r	8ryy	8r	8ryy	8r	16F#	16F#	16ff#	16ff#	16ff#	16ff#
.	.	.	.	.	.	.	.	.	.	16E	16E	16ee	16ee	16ee	16ee
=58	=58	=58	=58	=58	=58	=58	=58	=58	=58	=58	=58	=58	=58	=58	=58
8DD	8D	8A 8f#	8d 8a 8ff#	8d 8a 8ff#	4D	4dd	4ff#	4dd	4ff#	4D	4D	4dd	4dd	4dd	4dd
8r	8r	8r	8r	8r	.	.	.	.	.	.	.	.	.	.	.
4r	4r	8F#	4r	8dd	4r	4ryy	4r	4ryy	4r	8F#	8F#	4r	4r	4r	4r
.	.	8F#	.	8dd	.	.	.	.	.	8F#	8F#	.	.	.	.
=59	=59	=59	=59	=59	=59	=59	=59	=59	=59	=59	=59	=59	=59	=59	=59
4r	4r	8f#	4r	8ddd	2r	2r	2r	2r	2r	8f#	8f#	2r	2r	4r	4r
.	.	8f#	.	8ddd	.	.	.	.	.	8f#	8f#	.	.	.	.
8BBB	8BB	16f#	8d	16ddd	.	.	.	.	.	16f#	16f#	.	.	8dd	8dd
.	.	16e	.	16ccc#	.	.	.	.	.	16e	16e	.	.	.	.
8BBB	8BB	16d	8d	16bb	.	.	.	.	.	16d	16d	.	.	8dd	8dd
.	.	16c#	.	16aa	.	.	.	.	.	16c#	16c#	.	.	.	.
=60	=60	=60	=60	=60	=60	=60	=60	=60	=60	=60	=60	=60	=60	=60	=60
8BB	8B	8B	8dd	8gg#	2r	2r	2r	2r	2r	8B	8B	4ryy	4r	8ddd	8ddd
8BB	8B	8r	8dd	8gg#	.	.	.	.	.	8r	8r	.	.	8ddd	8ddd
16BB	16B	8E	16dd	8gg#	.	.	.	.	.	4r	4r	8b	8e	16ddd	16ddd
16AA	16A	.	16cc#	.	.	.	.	.	.	.	.	.	.	16ccc#	16ccc#
16GG#	16G#	8E	16b	8aa	.	.	.	.	.	.	.	8b	8e	16bb	16bb
16FF#	16F#	.	16a	.	.	.	.	.	.	.	.	.	.	16aa	16aa
=61	=61	=61	=61	=61	=61	=61	=61	=61	=61	=61	=61	=61	=61	=61	=61
8EE	8E	8e	8g#	8bb	2r	2r	2r	2r	2r	8r	8r	8dd	8bb	4gg#	4gg#
8r	8r	8e	8dd	8bb	.	.	.	.	.	8EE	8EE	8dd	8bb	.	.
8EE	8E	16e	16dd	16bb	.	.	.	.	.	16E	16E	16dd	16bb	4r	4r
.	.	16f#	16cc#	16aa	.	.	.	.	.	16F#	16F#	16cc#	16aa	.	.
8EE	8E	16g#	16b	16gg#	.	.	.	.	.	16G#	16G#	16b	16gg#	.	.
.	.	16a	16a	16ff#	.	.	.	.	.	16A	16A	16a	16ff#	.	.
=62	=62	=62	=62	=62	=62	=62	=62	=62	=62	=62	=62	=62	=62	=62	=62
8E	8e	8b	8g#	8ee	2r	2r	2r	2r	2r	8B	8B	8g#	8ee	2r	2r
8E	8e	8e	8g#	8ee	.	.	.	.	.	8E	8E	8g#	8ee	.	.
16E	16e	16ee	8a	8ff#	.	.	.	.	.	16e	16e	8a	8ff#	.	.
16D	16d	16dd	.	.	.	.	.	.	.	16d	16d	.	.	.	.
16C#	16c#	16cc#	8b	8gg#	.	.	.	.	.	16c#	16c#	8b	8gg#X	.	.
16BB	16B	16b	.	.	.	.	.	.	.	16B	16B	.	.	.	.
=63	=63	=63	=63	=63	=63	=63	=63	=63	=63	=63	=63	=63	=63	=63	=63
4AA	4A	4a	8cc#	8aa	2r	2r	2r	2r	2r	4A	4A	4cc#	4aa	4r	4r
.	.	.	8cc#	8aa	.	.	.	.	.	.	.	.	.	.	.
4r	4r	4r	8A	16aa	.	.	.	.	.	4r	4r	4ryy	4r	8a	8a
.	.	.	.	16gg#	.	.	.	.	.	.	.	.	.	.	.
.	.	.	8A	16ff#	.	.	.	.	.	.	.	.	.	8a	8a
.	.	.	.	16ee	.	.	.	.	.	.	.	.	.	.	.
=64	=64	=64	=64	=64	=64	=64	=64	=64	=64	=64	=64	=64	=64	=64	=64
2r	2r	2r	8a	8ff#	2r	2r	2r	2r	2r	2r	2r	2r	2r	8aa	8aa
.	.	.	8a	8ff#	.	.	.	.	.	.	.	.	.	8aa	8aa
.	.	.	16a	16ff#	.	.	.	.	.	.	.	.	.	16aa	16aa
.	.	.	16g#	16ee	.	.	.	.	.	.	.	.	.	16gg#	16gg#
.	.	.	16f#	16dd	.	.	.	.	.	.	.	.	.	16ff#	16ff#
.	.	.	16e	16cc#	.	.	.	.	.	.	.	.	.	16ee	16ee
=65	=65	=65	=65	=65	=65	=65	=65	=65	=65	=65	=65	=65	=65	=65	=65
4r	4r	2r	8f#	8dd	2r	2r	2r	2r	2r	4r	4r	4ryy	4r	8ff#	8ff#
.	.	.	8f#	8dd	.	.	.	.	.	.	.	.	.	8ff#	8ff#
8BBB	8BB	.	16f#	16dd	.	.	.	.	.	8BB	8BB	8ff#	8dd	16ff#	16ff#
.	.	.	16e	16cc#	.	.	.	.	.	.	.	.	.	16ee	16ee
8BBB	8BB	.	16d	16b	.	.	.	.	.	8BB	8BB	8ff#	8dd	16dd	16dd
.	.	.	16c#	16a	.	.	.	.	.	.	.	.	.	16cc#	16cc#
=66	=66	=66	=66	=66	=66	=66	=66	=66	=66	=66	=66	=66	=66	=66	=66
8D	8d	[2E	8B	8g#	2r	4ee	4ee	4ee	4ee	8d	8d	[2gg#	[2bb	4b	4b
8D	8d	.	8b	8b	.	.	.	.	.	8d	8d	.	.	.	.
16D	16d	.	16b	16b	.	4r	4r	4r	4r	16d	16d	.	.	8b	8b
16C#	16c#	.	16a	16a	.	.	.	.	.	16c#	16c#	.	.	.	.
16BB	16B	.	16g#	16g#	.	.	.	.	.	16B	16B	.	.	8b	8b
16AA	16A	.	16f#	16f#	.	.	.	.	.	16A	16A	.	.	.	.
=67	=67	=67	=67	=67	=67	=67	=67	=67	=67	=67	=67	=67	=67	=67	=67
8GG#	8G#	2E_	8e	8e	2r	4ee	4ee	4ee	4ee	8G#	8G#	2gg#_	2bb_	[2ddd	[2ddd
8BB	8B	.	8dd	8dd	.	.	.	.	.	8B	8B	.	.	.	.
16BB	16B	.	16dd	16dd	.	4r	4r	4r	4r	16B	16B	.	.	.	.
16AA	16A	.	16cc#	16cc#	.	.	.	.	.	16A	16A	.	.	.	.
16GG#	16G#	.	16b	16b	.	.	.	.	.	16G#	16G#	.	.	.	.
16FF#	16F#	.	16a	16a	.	.	.	.	.	16F#	16F#	.	.	.	.
=68	=68	=68	=68	=68	=68	=68	=68	=68	=68	=68	=68	=68	=68	=68	=68
8EE	8E	2E_	8g#	8g#	2r	4ee	4ee	4ee	4ee	8E	8E	2gg#_	2bb_	2ddd_	2ddd_
8D	8d	.	8b	8b	.	.	.	.	.	8d	8d	.	.	.	.
16D	16d	.	16b	16b	.	4r	4r	4r	4r	16d	16d	.	.	.	.
16C#	16c#	.	16a	16a	.	.	.	.	.	16c#	16c#	.	.	.	.
16BB	16B	.	16g#	16g#	.	.	.	.	.	16B	16B	.	.	.	.
16AA	16A	.	16f#	16f#	.	.	.	.	.	16A	16A	.	.	.	.
=69	=69	=69	=69	=69	=69	=69	=69	=69	=69	=69	=69	=69	=69	=69	=69
8GG#	8G#	2E]	8e	8e	2r	4ee	4ee	4ee	4ee	8G#	8G#	4gg#]	4bb]	2ddd]	2ddd]
8D	8d	.	8b	8b	.	.	.	.	.	8d	8d	.	.	.	.
16D	16d	.	16b	16b	.	4r	4r	4r	4r	16d	16d	16bb	16bb	.	.
16C#	16c#	.	16a	16a	.	.	.	.	.	16c#	16c#	16aa	16aa	.	.
16BB	16B	.	16g#	16g#	.	.	.	.	.	16B	16B	16gg#X	16gg#	.	.
16AA	16A	.	16f#	16f#	.	.	.	.	.	16A	16A	16ff#	16ff#	.	.
=70	=70	=70	=70	=70	=70	=70	=70	=70	=70	=70	=70	=70	=70	=70	=70
4.GG#z	4.G#z	4.Ez	4.ez	4.ez	2r	4ee	4ee	4ee	4ee	4.G#z	4.G#z	4.eez	4.eez	4.dddz	4.dddz
.	.	.	.	.	.	4r	4r	4r	4r	.	.	.	.	.	.
8AA	8A	8A	16cn	16d#	.	.	.	.	.	8A	8A	8ccn	8dd#	8cccn	8cccn
.	.	.	16c	16d#	.	.	.	.	.	.	.	.	.	.	.
=71	=71	=71	=71	=71	=71	=71	=71	=71	=71	=71	=71	=71	=71	=71	=71
8GG#	8G#	8G#	16B	16e	2r	2r	2r	2r	2r	8G#	8G#	8b	8ee	8bb	8bb
.	.	.	16B	16e	.	.	.	.	.	.	.	.	.	.	.
8AA	8A	8A	16cn	16d#	.	.	.	.	.	8A	8A	8ccn	8dd#	8cccn	8cccn
.	.	.	16c	16d#	.	.	.	.	.	.	.	.	.	.	.
8GG#	8G#	8G#	16B	16e	.	.	.	.	.	8G#	8G#	8b	8ee	8bb	8bb
.	.	.	16B	16e	.	.	.	.	.	.	.	.	.	.	.
8AA	8A	8A	16c	16d#	.	.	.	.	.	8A	8A	8cc	8dd#	8ccc	8ccc
.	.	.	16c	16d#	.	.	.	.	.	.	.	.	.	.	.
=72	=72	=72	=72	=72	=72	=72	=72	=72	=72	=72	=72	=72	=72	=72	=72
4.GG#z	4.G#z	4.G#z	4.Bz	4.ez	2r	4ee	4ee	4ee	4ee	4.G#z	4.G#z	4.b	4.eez	4.bbz	4.bbz
.	.	.	.	.	.	4r	4r	4r	4r	.	.	.	.	.	.
8AA	8A	8A	16cn	16d#	.	.	.	.	.	8A	8A	8ccn	8dd#	8cccn	8cccn
.	.	.	16c	16d#	.	.	.	.	.	.	.	.	.	.	.
=73	=73	=73	=73	=73	=73	=73	=73	=73	=73	=73	=73	=73	=73	=73	=73
8GG#	8G#	8G#	16B	16e	2r	2r	2r	2r	2r	8G#	8G#	8b	8ee	8bb	8bb
.	.	.	16B	16e	.	.	.	.	.	.	.	.	.	.	.
8AA	8A	8A	16cn	16d#	.	.	.	.	.	8A	8A	8ccn	8dd#	8cccn	8cccn
.	.	.	16c	16d#	.	.	.	.	.	.	.	.	.	.	.
8GG#	8G#	8G#	16B	16e	.	.	.	.	.	8G#	8G#	8b	8ee	8bb	8bb
.	.	.	16B	16e	.	.	.	.	.	.	.	.	.	.	.
8AA	8A	8A	16c	16d#	.	.	.	.	.	8A	8A	8cc	8dd#	8ccc	8ccc
.	.	.	16c	16d#	.	.	.	.	.	.	.	.	.	.	.
=74	=74	=74	=74	=74	=74	=74	=74	=74	=74	=74	=74	=74	=74	=74	=74
8GG#	8G#	8G#	16B 16e	16e	2r	[2ee	[2ee	[2ee	[2ee	8G#	8G#	2b	[2ee	[2bb	[2bb
.	.	.	16B 16e	16e	.	.	.	.	.	.	.	.	.	.	.
8GG#	8G#	8E	16B 16e	16e	.	.	.	.	.	8G#	8G#	.	.	.	.
.	.	.	16B 16e	16e	.	.	.	.	.	.	.	.	.	.	.
8GG#	8G#	8E	16B 16e	16b	.	.	.	.	.	8G#	8G#	.	.	.	.
.	.	.	16B 16e	16b	.	.	.	.	.	.	.	.	.	.	.
8GG#	8G#	8E	16B 16e	16b	.	.	.	.	.	8G#	8G#	.	.	.	.
.	.	.	16B 16e	16b	.	.	.	.	.	.	.	.	.	.	.
=75	=75	=75	=75	=75	=75	=75	=75	=75	=75	=75	=75	=75	=75	=75	=75
8GG#	8G#	8E	16B 16e	16ddn	2r	2ee_	2ee_	2ee_	2ee_	8G#	8G#	[2ddn	2ee_	2bb_	2bb_
.	.	.	16B 16e	16ddn	.	.	.	.	.	.	.	.	.	.	.
8GG#	8G#	8E	16B 16e	16ddn	.	.	.	.	.	8G#	8G#	.	.	.	.
.	.	.	16B 16e	16ddn	.	.	.	.	.	.	.	.	.	.	.
8GG#	8G#	8E	16B 16e	16b	.	.	.	.	.	8G#	8G#	.	.	.	.
.	.	.	16B 16e	16b	.	.	.	.	.	.	.	.	.	.	.
8GG#	8G#	8E	16B 16e	16b	.	.	.	.	.	8G#	8G#	.	.	.	.
.	.	.	16B 16e	16b	.	.	.	.	.	.	.	.	.	.	.
=76	=76	=76	=76	=76	=76	=76	=76	=76	=76	=76	=76	=76	=76	=76	=76
8GG#	8G#	8E	16dd	16gg#	2r	2ee_	2ee_	2ee_	2ee_	8G#	8G#	2dd_	2ee_	2bb_	2bb_
.	.	.	16dd	16gg#	.	.	.	.	.	.	.	.	.	.	.
8GG#	8G#	8E	16dd	16gg#	.	.	.	.	.	8G#	8G#	.	.	.	.
.	.	.	16dd	16gg#	.	.	.	.	.	.	.	.	.	.	.
8GG#	8G#	8E	16b	16ee	.	.	.	.	.	8G#	8G#	.	.	.	.
.	.	.	16b	16ee	.	.	.	.	.	.	.	.	.	.	.
8GG#	8G#	8E	16b	16ee	.	.	.	.	.	8G#	8G#	.	.	.	.
.	.	.	16b	16ee	.	.	.	.	.	.	.	.	.	.	.
=77	=77	=77	=77	=77	=77	=77	=77	=77	=77	=77	=77	=77	=77	=77	=77
8GG#	8G#	8E	16dd	16bb	2r	2ee]	2ee]	2ee]	2ee]	8G#	8G#	2dd]	2ee]	2bb]	2bb]
.	.	.	16dd	16bb	.	.	.	.	.	.	.	.	.	.	.
8GG#	8G#	8E	16dd	16bb	.	.	.	.	.	8G#	8G#	.	.	.	.
.	.	.	16dd	16bb	.	.	.	.	.	.	.	.	.	.	.
8GG#	8G#	8E	16b	16gg#	.	.	.	.	.	8G#	8G#	.	.	.	.
.	.	.	16b	16gg#	.	.	.	.	.	.	.	.	.	.	.
8GG#	8G#	8E	16b	16gg#	.	.	.	.	.	8G#	8G#	.	.	.	.
.	.	.	16b	16gg#	.	.	.	.	.	.	.	.	.	.	.
=78	=78	=78	=78	=78	=78	=78	=78	=78	=78	=78	=78	=78	=78	=78	=78
8GG#	8G#	8E	8e 8b	16ddd	2r	8ee	8ee	8ee	8ee	8G#	8G#	8dd	8ee	8bb	8bb
.	.	.	.	16ddd	.	.	.	.	.	.	.	.	.	.	.
8GG#	8G#	8E	8e 8b	16ddd	.	8ee	8ee	8ee	8ee	8G#	8G#	8dd	8ee	8bb	8bb
.	.	.	.	16ddd	.	.	.	.	.	.	.	.	.	.	.
4r	4r	4r	4r	16ee	.	4r	4r	4r	4r	4r	4r	4ryy	4r	4r	4r
.	.	.	.	16ee	.	.	.	.	.	.	.	.	.	.	.
.	.	.	.	16ee	.	.	.	.	.	.	.	.	.	.	.
.	.	.	.	16ee	.	.	.	.	.	.	.	.	.	.	.
=79	=79	=79	=79	=79	=79	=79	=79	=79	=79	=79	=79	=79	=79	=79	=79
8GG#	8G#	8E	8e 8b	16ddd	2r	8ee	8ee	8ee	8ee	8G#	8G#	8dd	8ee	8bb	8bb
.	.	.	.	16ddd	.	.	.	.	.	.	.	.	.	.	.
8GG#	8G#	8E	8e 8b	16ddd	.	8ee	8ee	8ee	8ee	8G#	8G#	8dd	8ee	8bb	8bb
.	.	.	.	16ddd	.	.	.	.	.	.	.	.	.	.	.
4r	4r	4r	4r	16ee	.	4r	4r	4r	4r	4r	4r	4ryy	4r	4r	4r
.	.	.	.	16ee	.	.	.	.	.	.	.	.	.	.	.
.	.	.	.	16ee	.	.	.	.	.	.	.	.	.	.	.
.	.	.	.	16ee	.	.	.	.	.	.	.	.	.	.	.
=80	=80	=80	=80	=80	=80	=80	=80	=80	=80	=80	=80	=80	=80	=80	=80
8GG#	8G#	8E	8e 8b	16ddd	2r	8ee	8ee	8ee	8ee	8G#	8G#	8dd	8ee	8bb	8bb
.	.	.	.	16ddd	.	.	.	.	.	.	.	.	.	.	.
8GG#	8G#	8E	8e 8b	16ddd	.	8ee	8ee	8ee	8ee	8G#	8G#	8dd	8ee	8bb	8bb
.	.	.	.	16ddd	.	.	.	.	.	.	.	.	.	.	.
4r	4r	4r	4r	16ee	.	4r	4r	4r	4r	4r	4r	4ryy	4r	4r	4r
.	.	.	.	16ee	.	.	.	.	.	.	.	.	.	.	.
.	.	.	.	16ee	.	.	.	.	.	.	.	.	.	.	.
.	.	.	.	16ee	.	.	.	.	.	.	.	.	.	.	.
=81	=81	=81	=81	=81	=81	=81	=81	=81	=81	=81	=81	=81	=81	=81	=81
2r	2r	2r	2r	8ddd'	2r	2r	2r	2r	2r	2r	2r	2r	2r	2r	2r
.	.	.	.	8ddd'	.	.	.	.	.	.	.	.	.	.	.
.	.	.	.	8ee'	.	.	.	.	.	.	.	.	.	.	.
.	.	.	.	8ee'	.	.	.	.	.	.	.	.	.	.	.
=82	=82	=82	=82	=82	=82	=82	=82	=82	=82	=82	=82	=82	=82	=82	=82
2r	2r	2r	2r	8ddd'	2r	2r	2r	2r	2r	2r	2r	2r	2r	2r	2r
.	.	.	.	8ddd'	.	.	.	.	.	.	.	.	.	.	.
.	.	.	.	8ee'	.	.	.	.	.	.	.	.	.	.	.
.	.	.	.	8ee'	.	.	.	.	.	.	.	.	.	.	.
=83	=83	=83	=83	=83	=83	=83	=83	=83	=83	=83	=83	=83	=83	=83	=83
2r	2r	2r	2r	8ddd'	2r	2r	2r	2r	2r	2r	2r	2r	2r	2ryy	4r
.	.	.	.	8ddd'	.	.	.	.	.	.	.	.	.	.	.
.	.	.	.	8ee'	.	.	.	.	.	.	.	.	.	.	8ee'
.	.	.	.	8ee'	.	.	.	.	.	.	.	.	.	.	8ee'
=84	=84	=84	=84	=84	=84	=84	=84	=84	=84	=84	=84	=84	=84	=84	=84
.	.	.	.	16aaQ	.	.	.	.	.	.	.	.	.	.	16aaQ
.	.	.	.	16bbQ	.	.	.	.	.	.	.	.	.	.	16bbQ
2r	2r	8a	8cc#	4ccc#	2r	2r	2r	2r	2r	2r	2r	2r	2r	2ryy	4ccc#
.	.	8r	8r	.	.	.	.	.	.	.	.	.	.	.	.
.	.	8a	8dd	16bb	.	.	.	.	.	.	.	.	.	.	16bb
.	.	.	.	16aa	.	.	.	.	.	.	.	.	.	.	16aa
.	.	8r	8r	16gg#	.	.	.	.	.	.	.	.	.	.	16gg#
.	.	.	.	16ff#	.	.	.	.	.	.	.	.	.	.	16ff#
=85	=85	=85	=85	=85	=85	=85	=85	=85	=85	=85	=85	=85	=85	=85	=85
2r	2r	4.a	4.cc#	4.ee	2r	2r	2r	2r	2r	2r	2r	2r	2r	2ryy	4.ee
.	.	8a	8b#'	8dd#'	.	.	.	.	.	.	.	.	.	.	8dd#
=86	=86	=86	=86	=86	=86	=86	=86	=86	=86	=86	=86	=86	=86	=86	=86
.	.	.	.	8ff#q	.	.	.	.	.	.	.	.	.	.	8ff#q
2r	2r	8a	8cc#	8ee	2r	2r	2r	2r	2r	2r	2r	2r	2r	2ryy	8ee
.	.	8a	8b#	8dd#	.	.	.	.	.	.	.	.	.	.	8dd#
.	.	8a	8cc#	8ee	.	.	.	.	.	.	.	.	.	.	8ee
.	.	8a	8ddn	8ff#	.	.	.	.	.	.	.	.	.	.	8ff#
=87	=87	=87	=87	=87	=87	=87	=87	=87	=87	=87	=87	=87	=87	=87	=87
2r	2r	4a	[2cc#	4.ee	2r	2r	2r	2r	2r	2r	2r	2r	2r	2ryy	4.ee
.	.	4e	.	.	.	.	.	.	.	.	.	.	.	.	.
.	.	.	.	8cc#	.	.	.	.	.	.	.	.	.	.	8cc#
=88	=88	=88	=88	=88	=88	=88	=88	=88	=88	=88	=88	=88	=88	=88	=88
2r	2r	8f#	4cc#]	2dd	2r	2r	2r	2r	2r	2r	2r	2r	2r	2ryy	2dd
.	.	8e	.	.	.	.	.	.	.	.	.	.	.	.	.
.	.	8f#	[4b	.	.	.	.	.	.	.	.	.	.	.	.
.	.	8g#	.	.	.	.	.	.	.	.	.	.	.	.	.
=89	=89	=89	=89	=89	=89	=89	=89	=89	=89	=89	=89	=89	=89	=89	=89
2r	2r	8e	4b]	2cc#	2r	2r	2r	2r	2r	2r	2r	2r	2r	2ryy	2cc#
.	.	8d	.	.	.	.	.	.	.	.	.	.	.	.	.
.	.	8e	4a	.	.	.	.	.	.	.	.	.	.	.	.
.	.	8f#	.	.	.	.	.	.	.	.	.	.	.	.	.
=90	=90	=90	=90	=90	=90	=90	=90	=90	=90	=90	=90	=90	=90	=90	=90
2r	2r	8d	2a	[2b	2r	2r	2r	2r	2r	2r	2r	2r	2r	2ryy	[2b
.	.	8c#	.	.	.	.	.	.	.	.	.	.	.	.	.
.	.	8d	.	.	.	.	.	.	.	.	.	.	.	.	.
.	.	8d#	.	.	.	.	.	.	.	.	.	.	.	.	.
=91	=91	=91	=91	=91	=91	=91	=91	=91	=91	=91	=91	=91	=91	=91	=91
4r	4r	4e	8g#	8b]	2r	2r	2r	2r	2r	2r	2r	2r	2r	2ryy	8b]
.	.	.	8f#	8a	.	.	.	.	.	.	.	.	.	.	8a
8r	8r	4r	8g#	8b	.	.	.	.	.	.	.	.	.	.	8b
8DD#	8D#	.	8a	8ccn	.	.	.	.	.	.	.	.	.	.	8ccn
=92	=92	=92	=92	=92	=92	=92	=92	=92	=92	=92	=92	=92	=92	=92	=92
8EE	8E	2r	4g#	4b	2r	2r	2r	2r	2r	2r	2r	2r	2r	2ryy	4b
8DD#	8D#	.	.	.	.	.	.	.	.	.	.	.	.	.	.
8EE	8E	.	8r	8r	.	.	.	.	.	.	.	.	.	.	8r
8FF	8Fn	.	8a	8dd#	.	.	.	.	.	.	.	.	.	.	8dd#
=93	=93	=93	=93	=93	=93	=93	=93	=93	=93	=93	=93	=93	=93	=93	=93
8EE	8E	2r	4g#	4ee	2r	2r	2r	2r	2r	2r	2r	2r	2r	2ryy	4ee
8DD#	8D#	.	.	.	.	.	.	.	.	.	.	.	.	.	.
8EE	8E	.	8r	8r	.	.	.	.	.	.	.	.	.	.	8r
8FF	8Fn	.	8dd#	8aa	.	.	.	.	.	.	.	.	.	.	8aa
=94	=94	=94	=94	=94	=94	=94	=94	=94	=94	=94	=94	=94	=94	=94	=94
8EE	8E	2r	4ee	4gg#	2r	2r	2r	2r	2r	2r	2r	2r	2r	2ryy	4gg#
8DD#	8D#	.	.	.	.	.	.	.	.	.	.	.	.	.	.
8EE	8E	.	8r	8r	.	.	.	.	.	.	.	.	.	.	8r
8FF	8Fn	.	8aa	8ddd#	.	.	.	.	.	.	.	.	.	.	8ddd#
=95	=95	=95	=95	=95	=95	=95	=95	=95	=95	=95	=95	=95	=95	=95	=95
8EE	8E	4r	4gg#	4eee	2r	2r	2r	2r	2r	4r	4r	4r	4r	4ryy	4eee
8DD#	8D#	.	.	.	.	.	.	.	.	.	.	.	.	.	.
8EE	8E	8r	8r	8r	.	.	.	.	.	8r	8r	8r	8r	8r	8r
8DD#'	8D#'	8d#'	8d#'	8d#'	.	.	.	.	.	8d#'	8d#'	8dd#'	8dd#'	8dd#'	8dd#'
=96	=96	=96	=96	=96	=96	=96	=96	=96	=96	=96	=96	=96	=96	=96	=96
8EE	8E	8e	8e	8e	2r	2r	2r	2r	2r	8e	8e	8ee	8ee	8ee	8ee
8DD#	8D#	8d#	8d#	8d#	.	.	.	.	.	8d#	8d#	8dd#	8dd#	8dd#	8dd#
8EE'	8E'	8e'	8e'	8e'	.	.	.	.	.	8e'	8e'	8ee'	8ee'	8ee'	8ee'
8FF#X'	8F#X'	8f#X'	8f#X'	8f#X'	.	.	.	.	.	8f#X'	8f#X'	8ff#X'	8ff#X'	8ff#X'	8ff#X'
=97	=97	=97	=97	=97	=97	=97	=97	=97	=97	=97	=97	=97	=97	=97	=97
8DD	8Dn	8dn	8dn	8dn	2r	2r	2r	2r	2r	8dn	8dn	8ddn	8ddn	8ddn	8ddn
8CC#	8C#	8c#	8c#	8c#	.	.	.	.	.	8c#	8c#	8cc#	8cc#	8cc#	8cc#
8DD'	8D'	8d'	8d'	8d'	.	.	.	.	.	8d'	8d'	8dd'	8dd'	8dd'	8dd'
8EE'	8E'	8e'	8e'	8e'	.	.	.	.	.	8e'	8e'	8ee'	8ee'	8ee'	8ee'
=98	=98	=98	=98	=98	=98	=98	=98	=98	=98	=98	=98	=98	=98	=98	=98
8CC#	8C#	8c#'	8c#	8c#'	4AA	[2a	[2aa	2a	[2ee	2c#	2c#	2cc#	2cc#	2cc#	2cc#
8CC#	8C#	8a'	4e 4a	8e'	.	.	.	.	.	.	.	.	.	.	.
8CC#	8C#	8e'	.	8a'	8AA	.	.	.	.	.	.	.	.	.	.
8CC#	8C#	8c#'	[8e [8a	8cc#'	8AA	.	.	.	.	.	.	.	.	.	.
=99	=99	=99	=99	=99	=99	=99	=99	=99	=99	=99	=99	=99	=99	=99	=99
8CC#	8C#	8A'	8e] 8a]	8ee'	4AA	2a]	2aa]	2a	2ee_	2A	2A	[2ee	2ee	2ee	2ee
8CC#	8C#	8ee'	4e 4a	8aa'	.	.	.	.	.	.	.	.	.	.	.
8CC#	8C#	8cc#'	.	8ccc#'	4r	.	.	.	.	.	.	.	.	.	.
8CC#	8C#	8a'	8e 8a	8eee'	.	.	.	.	.	.	.	.	.	.	.
=100	=100	=100	=100	=100	=100	=100	=100	=100	=100	=100	=100	=100	=100	=100	=100
8GGG#	8GG#	2dd	8e 8b	8ddd'	2r	[2ee	[2ee	[2ee	2ee]	[2G#	[2G#	2ee_	[2bb	[2ddd	[2ddd
8GGG#	8GG#	.	4e 4b	16ddd	.	.	.	.	.	.	.	.	.	.	.
.	.	.	.	16ccc#	.	.	.	.	.	.	.	.	.	.	.
8GGG#	8GG#	.	.	8bb'	.	.	.	.	.	.	.	.	.	.	.
8GGG#	8GG#	.	8e 8b	16bb	.	.	.	.	.	.	.	.	.	.	.
.	.	.	.	16aa	.	.	.	.	.	.	.	.	.	.	.
=101	=101	=101	=101	=101	=101	=101	=101	=101	=101	=101	=101	=101	=101	=101	=101
8GGG#	8GG#	2b	8e 8dd	8gg#'	2r	2ee]	2ee]	2ee]	2ee	2G#]	2G#]	2ee]	2bb]	2ddd]	2ddd]
8GGG#	8GG#	.	4e 4dd	16gg#	.	.	.	.	.	.	.	.	.	.	.
.	.	.	.	16ff#	.	.	.	.	.	.	.	.	.	.	.
8GGG#	8GG#	.	.	8ee'	.	.	.	.	.	.	.	.	.	.	.
8GGG#	8GG#	.	8e 8dd	16ee	.	.	.	.	.	.	.	.	.	.	.
.	.	.	.	16dd	.	.	.	.	.	.	.	.	.	.	.
=102	=102	=102	=102	=102	=102	=102	=102	=102	=102	=102	=102	=102	=102	=102	=102
8AAA	8AA	8cc#'	8e 8cc#	8cc#'	4AA	[2a	[2aa	2A	[2aa	[2A	[2A	[2ee	[2aa	[2ccc#	[2ccc#
8AAA	8AA	8a'	4e 4cc#	8e'	.	.	.	.	.	.	.	.	.	.	.
8AAA	8AA	8e'	.	8a'	8AA	.	.	.	.	.	.	.	.	.	.
8AAA	8AA	8c#'	[8e [8cc#	8cc#'	8AA	.	.	.	.	.	.	.	.	.	.
=103	=103	=103	=103	=103	=103	=103	=103	=103	=103	=103	=103	=103	=103	=103	=103
8AAA	8AA	8A'	8e] 8cc#]	8ee'	4AA	2a]	2aa]	2A	2aa]	2A]	2A]	2ee]	2aa]	2ccc#]	2ccc#]
8AAA	8AA	8ee'	4e 4cc#	8aa'	.	.	.	.	.	.	.	.	.	.	.
8AAA	8AA	8cc#'	.	8ccc#'	4r	.	.	.	.	.	.	.	.	.	.
8AAA	8AA	8a'	8e 8cc#	8eee'	.	.	.	.	.	.	.	.	.	.	.
=104	=104	=104	=104	=104	=104	=104	=104	=104	=104	=104	=104	=104	=104	=104	=104
8GGG#	8GG#	2dd	8e 8b	8ddd'	2r	[2ee	[2ee	[2ee	2ee	[2G#	[2G#	[2ee	[2bb	[2ddd	[2ddd
8GGG#	8GG#	.	4e 4b	16ddd	.	.	.	.	.	.	.	.	.	.	.
.	.	.	.	16ccc#	.	.	.	.	.	.	.	.	.	.	.
8GGG#	8GG#	.	.	8bb'	.	.	.	.	.	.	.	.	.	.	.
8GGG#	8GG#	.	8e 8b	16bb	.	.	.	.	.	.	.	.	.	.	.
.	.	.	.	16aa	.	.	.	.	.	.	.	.	.	.	.
=105	=105	=105	=105	=105	=105	=105	=105	=105	=105	=105	=105	=105	=105	=105	=105
8GGG#	8GG#	2b	8e 8dd	8gg#'	2r	2ee]	2ee]	2ee]	2ee	2G#]	2G#]	2ee]	2bb]	2ddd]	2ddd]
8GGG#	8GG#	.	4e 4dd	16gg#	.	.	.	.	.	.	.	.	.	.	.
.	.	.	.	16ff#	.	.	.	.	.	.	.	.	.	.	.
8GGG#	8GG#	.	.	8ee'	.	.	.	.	.	.	.	.	.	.	.
8GGG#	8GG#	.	8e 8dd	16ee	.	.	.	.	.	.	.	.	.	.	.
.	.	.	.	16dd	.	.	.	.	.	.	.	.	.	.	.
=106	=106	=106	=106	=106	=106	=106	=106	=106	=106	=106	=106	=106	=106	=106	=106
8AAA	8AA	8a	8e 8cc#	8cc#	4AA	2a	[2aa	[2A	[2aa	[2A	[2A	[2ee	[2aa	2ccc#	2ccc#
8AAA	8AA	8ee	4e 4cc#	8e	.	.	.	.	.	.	.	.	.	.	.
8AAA	8AA	8cc#	.	8a	8AA	.	.	.	.	.	.	.	.	.	.
8AAA	8AA	8a	[8e [8cc#	8cc#	8AA	.	.	.	.	.	.	.	.	.	.
=107	=107	=107	=107	=107	=107	=107	=107	=107	=107	=107	=107	=107	=107	=107	=107
8AAA	8AA	4e	8e] 8cc#]	8ee	8AA	2a	2aa]	2A]	2aa]	2A]	2A]	2ee_	2aa_	2eee	2eee
8AAA	8AA	.	4e 4cc#	8aa	8AA	.	.	.	.	.	.	.	.	.	.
8AAA	8AA	4r	.	8ccc#	8AA	.	.	.	.	.	.	.	.	.	.
8AAA	8AA	.	8e 8cc#	8eee	8AA	.	.	.	.	.	.	.	.	.	.
=108	=108	=108	=108	=108	=108	=108	=108	=108	=108	=108	=108	=108	=108	=108	=108
8DD	8D	8r	8f# 8b	8d	4D	2dd	[2ff#	[2dd	[2ff#	[2D	[2D	2ff#]	2aa]	[2ddd	[2ddd
8DD	8D	8b	4f# 4b	8f#	.	.	.	.	.	.	.	.	.	.	.
8DD	8D	8f#	.	8a#	8D	.	.	.	.	.	.	.	.	.	.
8DD	8D	8d	[8f# [8b	8b	8D	.	.	.	.	.	.	.	.	.	.
=109	=109	=109	=109	=109	=109	=109	=109	=109	=109	=109	=109	=109	=109	=109	=109
8DD	8D	4B	8f#] 8b]	8dd	4D	2dd	2ff#]	2dd]	2ff#]	2D]	2D]	2ff#	2ddd	2ddd]	2ddd]
8DD	8D	.	4f# 4b	8ff#	.	.	.	.	.	.	.	.	.	.	.
8DD	8D	4r	.	8bb	4r	.	.	.	.	.	.	.	.	.	.
8DD	8D	.	8f# 8b	8ddd	.	.	.	.	.	.	.	.	.	.	.
=110	=110	=110	=110	=110	=110	=110	=110	=110	=110	=110	=110	=110	=110	=110	=110
8EE	8E	8r	8a 8cc#	8ccc#	2r	[2ee	2ee	[2ee	[2ee	[2E	[2E	2aa	2ccc#	2ccc#	2ccc#
8EE	8E	8e	4a 4cc#	8eee	.	.	.	.	.	.	.	.	.	.	.
8EE	8E	8a	.	8ccc#	.	.	.	.	.	.	.	.	.	.	.
8EE	8E	8cc#	8a 8cc#	8aa	.	.	.	.	.	.	.	.	.	.	.
=111	=111	=111	=111	=111	=111	=111	=111	=111	=111	=111	=111	=111	=111	=111	=111
8EE	8E	4ee	8g# 8b	8ee	2r	2ee]	[2ee	2ee]	2ee_	2E]	2E]	2gg#	2bb	2bb	2bb
8EE	8E	.	4g# 4b	8dd	.	.	.	.	.	.	.	.	.	.	.
8EE	8E	4e	.	8b	.	.	.	.	.	.	.	.	.	.	.
8EE	8E	.	8g# 8b	8g#	.	.	.	.	.	.	.	.	.	.	.
=112	=112	=112	=112	=112	=112	=112	=112	=112	=112	=112	=112	=112	=112	=112	=112
8CC#	8C#	8c#	16a 16ee	16ee	8AA	[2a	2ee_	2a	2ee_	8C#	8C#	[2ee	[2aa	[2eee	[2eee
.	.	.	16a 16ee	16eee	.	.	.	.	.	.	.	.	.	.	.
8EE	8E	8e	16a 16ee	16eee	16AA	.	.	.	.	8E	8E	.	.	.	.
.	.	.	16a 16ee	16eee	16AA	.	.	.	.	.	.	.	.	.	.
8GG#	8G#	8g#	16a 16ee	16eee	8AA	.	.	.	.	8G#	8G#	.	.	.	.
.	.	.	16a 16ee	16eee	.	.	.	.	.	.	.	.	.	.	.
8AA	8A	8a	16a 16ee	16eee	8AA	.	.	.	.	8A	8A	.	.	.	.
.	.	.	16a 16ee	16eee	.	.	.	.	.	.	.	.	.	.	.
=113	=113	=113	=113	=113	=113	=113	=113	=113	=113	=113	=113	=113	=113	=113	=113
8C#	8c#	8cc#	16a 16ee	16eee	4AA	2a]	2ee]	2a	2ee]	8c#	8c#	2ee_	2aa_	2eee_	2eee_
.	.	.	16a 16ee	16eee	.	.	.	.	.	.	.	.	.	.	.
8E	8e	8ee	16a 16ee	16eee	.	.	.	.	.	8e	8e	.	.	.	.
.	.	.	16a 16ee	16eee	.	.	.	.	.	.	.	.	.	.	.
8C#	8c#	8cc#	16a 16ee	16eee	8AA	.	.	.	.	8c#	8c#	.	.	.	.
.	.	.	16a 16ee	16eee	.	.	.	.	.	.	.	.	.	.	.
8AA	8A	8a	16a 16ee	16eee	8AA	.	.	.	.	8A	8A	.	.	.	.
.	.	.	16a 16ee	16eee	.	.	.	.	.	.	.	.	.	.	.
=114	=114	=114	=114	=114	=114	=114	=114	=114	=114	=114	=114	=114	=114	=114	=114
8DD	8D	8d	16ff#	16eee	4D	[2dd	[2ff#	2dd	[2ff#	8D	8D	2ff#]	2aa]	2eee]	2eee]
.	.	.	16ff#	16eee	.	.	.	.	.	.	.	.	.	.	.
8FF#	8F#	8f#	16ff#	16eee	.	.	.	.	.	8F#	8F#	.	.	.	.
.	.	.	16ff#	16eee	.	.	.	.	.	.	.	.	.	.	.
8GG#	8G#	8g#	16ff#	16eee	4r	.	.	.	.	8G#	8G#	.	.	.	.
.	.	.	16ff#	16eee	.	.	.	.	.	.	.	.	.	.	.
8AA#	8A#	8a#	16ff#	16eee	.	.	.	.	.	8A#	8A#	.	.	.	.
.	.	.	16ff#	16eee	.	.	.	.	.	.	.	.	.	.	.
=115	=115	=115	=115	=115	=115	=115	=115	=115	=115	=115	=115	=115	=115	=115	=115
8BB	8B	8b	16ff#	16ddd	2r	2dd]	2ff#]	2dd	2ff#]	8B	8B	2ff#	2ddd	2ddd	2ddd
.	.	.	16ff#	16ddd	.	.	.	.	.	.	.	.	.	.	.
8C#	8c#	8cc#	16ff#	16ddd	.	.	.	.	.	8c#	8c#	.	.	.	.
.	.	.	16ff#	16ddd	.	.	.	.	.	.	.	.	.	.	.
8D	8d	8dd	16ff#	16ddd	.	.	.	.	.	8d	8d	.	.	.	.
.	.	.	16ff#	16ddd	.	.	.	.	.	.	.	.	.	.	.
8BB	8B	8b	16ff#	16ddd	.	.	.	.	.	8B	8B	.	.	.	.
.	.	.	16ff#	16ddd	.	.	.	.	.	.	.	.	.	.	.
=116	=116	=116	=116	=116	=116	=116	=116	=116	=116	=116	=116	=116	=116	=116	=116
4E	4e	4ee	4ee	4ccc#	2r	4ee	4ee	4ee	4ee	4e	4e	4aa	4ccc#	4ccc#	4ccc#
4r	4r	4r	4r	4r	.	4ryy	4r	4ryy	4r	4r	4r	4ryy	4r	4r	4r
=117	=117	=117	=117	=117	=117	=117	=117	=117	=117	=117	=117	=117	=117	=117	=117
4EE	4E	4e	4e 4dd	4b 4gg#	2r	4ee	4ee	4ee	4ee	4EE	4EE	4gg#	4bb	4bb	4bb
4r	4r	4r	4r	4r	.	4ryy	4r	4ryy	4r	4r	4r	4ryy	4r	4r	4r
=118	=118	=118	=118	=118	=118	=118	=118	=118	=118	=118	=118	=118	=118	=118	=118
4AAA	4AA	4A	8A'	8c#'	2r	2r	2r	2r	2r	2ryy	[2e	2ryy	[2ee	2r	2r
.	.	.	8c#'	8e'	.	.	.	.	.	.	.	.	.	.	.
4r	4r	4r	8A'	8c#'	.	.	.	.	.	.	.	.	.	.	.
.	.	.	8c#'	8e'	.	.	.	.	.	.	.	.	.	.	.
=119	=119	=119	=119	=119	=119	=119	=119	=119	=119	=119	=119	=119	=119	=119	=119
2r	2r	2r	8A'	8c#'	2r	2r	2r	2r	2r	2ryy	4e]	2ryy	4ee]	2r	2r
.	.	.	8c#'	8e'	.	.	.	.	.	.	.	.	.	.	.
.	.	.	.	.	.	.	.	.	.	.	.	.	8gg#q	.	.
.	.	.	8A'	8c#'	.	.	.	.	.	.	8f#	.	8ff#	.	.
.	.	.	8c#'	8e'	.	.	.	.	.	.	8e	.	8ee	.	.
=120	=120	=120	=120	=120	=120	=120	=120	=120	=120	=120	=120	=120	=120	=120	=120
4EE	4E	4E	8B	8d	2r	2r	2r	2r	2r	2ryy	8e	2ryy	8ee	2r	2r
.	.	.	8d	8e	.	.	.	.	.	.	8G#	.	8g#	.	.
4r	4r	4r	8B	8d	.	.	.	.	.	.	[4G#	.	[4g#	.	.
.	.	.	8d	8e	.	.	.	.	.	.	.	.	.	.	.
=121	=121	=121	=121	=121	=121	=121	=121	=121	=121	=121	=121	=121	=121	=121	=121
2r	2r	2r	8B	8d	2r	2r	2r	2r	2r	2ryy	4G#]	2ryy	4g#]	2r	2r
.	.	.	8d	8e	.	.	.	.	.	.	.	.	.	.	.
.	.	.	8B	8d	.	.	.	.	.	.	4G#	.	4g#	.	.
.	.	.	8d	8e	.	.	.	.	.	.	.	.	.	.	.
=122	=122	=122	=122	=122	=122	=122	=122	=122	=122	=122	=122	=122	=122	=122	=122
8CC#	8C#	8c#	8r	8r	2r	2r	2r	2r	2r	2ryy	8B	2ryy	8b	2r	2r
8r	8r	8r	8A	8e	.	.	.	.	.	.	8A	.	8a	.	.
8GGG#	8GG#	8G#	8r	8r	.	.	.	.	.	.	8c#	.	8cc#	.	.
8r	8r	8r	8B	8e	.	.	.	.	.	.	8B	.	8b	.	.
=123	=123	=123	=123	=123	=123	=123	=123	=123	=123	=123	=123	=123	=123	=123	=123
8AAA	8AA	8A	8r	8r	2r	2r	2r	2r	2r	2ryy	8d	2ryy	8dd	2r	2r
8r	8r	8r	8c#	8e	.	.	.	.	.	.	8c#	.	8cc#	.	.
8DD	8D	8D	8r	8r	.	.	.	.	.	.	8e	.	8ee	.	.
8r	8r	8r	8B	8d	.	.	.	.	.	.	8d	.	8dd	.	.
=124	=124	=124	=124	=124	=124	=124	=124	=124	=124	=124	=124	=124	=124	=124	=124
4EE	4E	4E	8r	8r	2r	2r	2r	2r	2r	2ryy	4.c#	2ryy	4.cc#	2r	2r
.	.	.	8A	8c#	.	.	.	.	.	.	.	.	.	.	.
4r	4r	4r	8c#	8e	.	.	.	.	.	.	.	.	.	.	.
.	.	.	8A	8c#	.	.	.	.	.	.	16d	.	16dd	.	.
.	.	.	.	.	.	.	.	.	.	.	16c#	.	16cc#	.	.
=125	=125	=125	=125	=125	=125	=125	=125	=125	=125	=125	=125	=125	=125	=125	=125
2r	2r	2r	8G#	4B	2r	2r	2r	2r	2r	2ryy	8B	2ryy	8b	2r	2r
.	.	.	8A	.	.	.	.	.	.	.	8c#	.	8cc#	.	.
.	.	.	8B	4r	.	.	.	.	.	.	8d	.	8dd	.	.
.	.	.	8B'	.	.	.	.	.	.	.	8d#	.	8dd#	.	.
=126	=126	=126	=126	=126	=126	=126	=126	=126	=126	=126	=126	=126	=126	=126	=126
4AAA	4AA	4A	8A'	8c#'	2r	2r	2r	2r	2r	2ryy	[2e	2ryy	[2ee	2r	2r
.	.	.	8c#'	8e'	.	.	.	.	.	.	.	.	.	.	.
4r	4r	4r	8A'	8c#'	.	.	.	.	.	.	.	.	.	.	.
.	.	.	8c#'	8e'	.	.	.	.	.	.	.	.	.	.	.
=127	=127	=127	=127	=127	=127	=127	=127	=127	=127	=127	=127	=127	=127	=127	=127
2r	2r	2r	8A	8c#	2r	2r	2r	2r	2r	2ryy	4e]	2ryy	4ee]	2r	2r
.	.	.	8c#	8e	.	.	.	.	.	.	.	.	.	.	.
.	.	.	.	.	.	.	.	.	.	.	.	.	8gg#q	.	.
.	.	.	8A	8c#	.	.	.	.	.	.	8f#	.	8ff#	.	.
.	.	.	8c#	8e	.	.	.	.	.	.	8e	.	8ee	.	.
=128	=128	=128	=128	=128	=128	=128	=128	=128	=128	=128	=128	=128	=128	=128	=128
4EE	4E	4E	8B	8d	2r	2r	2r	2r	2r	2ryy	8e	2ryy	8ee	2r	2r
.	.	.	8d	8e	.	.	.	.	.	.	8G#	.	8g#	.	.
4r	4r	4r	8B	8d	.	.	.	.	.	.	[4G#	.	[4g#	.	.
.	.	.	8d	8e	.	.	.	.	.	.	.	.	.	.	.
=129	=129	=129	=129	=129	=129	=129	=129	=129	=129	=129	=129	=129	=129	=129	=129
2r	2r	2r	8B	8d	2r	2r	2r	2r	2r	2ryy	4G#]	2ryy	4g#]	2r	2r
.	.	.	8d	8e	.	.	.	.	.	.	.	.	.	.	.
.	.	.	8B	8d	.	.	.	.	.	.	4G#	.	4g#	.	.
.	.	.	8d	8e	.	.	.	.	.	.	.	.	.	.	.
=130	=130	=130	=130	=130	=130	=130	=130	=130	=130	=130	=130	=130	=130	=130	=130
8CC#	8C#	2r	8r	8r	2r	2r	2r	2r	2r	2ryy	8B	2ryy	8b	2r	2r
8r	8r	.	8c#	8e	.	.	.	.	.	.	8A	.	8a	.	.
8DD	8D	.	8r	8r	.	.	.	.	.	.	8c#	.	8cc#	.	.
8r	8r	.	8B	8d	.	.	.	.	.	.	8B	.	8b	.	.
=131	=131	=131	=131	=131	=131	=131	=131	=131	=131	=131	=131	=131	=131	=131	=131
8EE	8E	2r	8r	8r	2r	2r	2r	2r	2r	4r	8d	4r	8dd	2r	2r
8r	8r	.	8A	8c#	.	.	.	.	.	.	8c#	.	8cc#	.	.
8EE	8E	.	8G#	8B	.	.	.	.	.	8r	8e	8r	8ee	.	.
8r	8r	.	8g#X	8g#	.	.	.	.	.	8G#	8G#	8g#	8g#	.	.
=132	=132	=132	=132	=132	=132	=132	=132	=132	=132	=132	=132	=132	=132	=132	=132
8BB	8B	8b	8b	8b	4AA	4a	4aa	4a	4aa	8B	8B	8b	8b	2r	2r
8AA	8A	8a	8a	8a	.	.	.	.	.	8A	8A	8a	8a	.	.
8C#	8c#	8cc#	8cc#	8cc#	4r	4ryy	4r	4ryy	4r	8c#	8c#	8cc#	4r	.	.
8BB	8B	8b	8b	8b	.	.	.	.	.	8B	8B	8b	.	.	.
=133	=133	=133	=133	=133	=133	=133	=133	=133	=133	=133	=133	=133	=133	=133	=133
8D	8d	8dd	8dd	8dd	2r	4ryy	4r	4ryy	4r	8d	8d	8dd	4r	4r	4r
8C#	8c#	8cc#	8cc#	8cc#	.	.	.	.	.	8c#	8c#	8cc#	.	.	.
8E	8e	8ee	8ee	8ee	.	4ee	4ee	4ee	4ee	8e	8e	8ee	8r	8r	8r
8GG#	8G#	8g#	8g#	8g#	.	.	.	.	.	8G#	8G#	8g#	8g#	8gg#	8gg#
=134	=134	=134	=134	=134	=134	=134	=134	=134	=134	=134	=134	=134	=134	=134	=134
8BB	8B	8b	8b	8b	4AA	4a	4aa	4a	4aa	8B	8B	8b	8b	8bb	8bb
8AA	8A	8a	8a	8a	.	.	.	.	.	8A	8A	8a	8a	8aa	8aa
8C#	8c#	8cc#	8cc#	8cc#	4r	4ryy	4r	4ryy	4r	8c#	8c#	8cc#	8cc#	8ccc#	8ccc#
8BB	8B	8b	8b	8b	.	.	.	.	.	8B	8B	8b	8b	8bb	8bb
=135	=135	=135	=135	=135	=135	=135	=135	=135	=135	=135	=135	=135	=135	=135	=135
8D	8d	8dd	8dd	8dd	2r	2r	2r	2r	2r	8d	8d	8dd	8dd	8ddd	8ddd
8C#	8c#	8cc#	8cc#	8cc#	.	.	.	.	.	8c#	8c#	8cc#	8cc#	8ccc#	8ccc#
8E	8e	8ee	8ee	8ee	.	.	.	.	.	8e	8e	8ee	8ee	8eee	8eee
8GG	8Gn	8gn	8gn	8gn	.	.	.	.	.	8Gn	8Gn	8gn	8gn	8ggn	8ggn
=136	=136	=136	=136	=136	=136	=136	=136	=136	=136	=136	=136	=136	=136	=136	=136
8FF#	8F#	8f#	8f#	8f#	2r	2r	2r	2r	2r	8F#	8F#	8f#	8f#	8ff#	8ff#
8GG	8G	8g	8g	8g	.	.	.	.	.	8G	8G	8g	8g	8gg	8gg
8FF#	8F#	8f#	8f#	8f#	.	.	.	.	.	8F#	8F#	8f#	8f#	8ff#	8ff#
8GG	8G	8g	8gg	8gg	.	.	.	.	.	8G	8G	8gg	8gg	8gg	8gg
=137	=137	=137	=137	=137	=137	=137	=137	=137	=137	=137	=137	=137	=137	=137	=137
8FF#	8F#	8f#	8ff#	8ff#	2r	2r	2r	2r	2r	8F#	8F#	8ff#	8ff#	8ff#	8ff#
8EE	8E	8e	8ee	8ee	.	.	.	.	.	8E	8E	8ee	8ee	8ee	8ee
8DD	8D	8d	8dd	8dd	.	.	.	.	.	8D	8D	8dd	8dd	8dd	8dd
8CC#	8C#	8c#	8cc#	8cc#	.	.	.	.	.	8C#	8C#	8cc#	8cc#	8cc#	8cc#
=138	=138	=138	=138	=138	=138	=138	=138	=138	=138	=138	=138	=138	=138	=138	=138
4BBB	4BB	4B	4dd	8dd	2r	2r	2r	2r	2r	4BB	4BB	[2b	8dd	2b	2b
.	.	.	.	8cc#	.	.	.	.	.	.	.	.	8cc#	.	.
4r	4r	4r	4r	8dd	.	.	.	.	.	4r	4r	.	8dd	.	.
.	.	.	.	8ee	.	.	.	.	.	.	.	.	8ee	.	.
=139	=139	=139	=139	=139	=139	=139	=139	=139	=139	=139	=139	=139	=139	=139	=139
2r	2r	[2b	2dd	8ff#	2r	2r	2r	2r	2r	2r	2r	2b_	8ff#	2ddd	2ddd
.	.	.	.	8ee	.	.	.	.	.	.	.	.	8ee	.	.
.	.	.	.	8ff#	.	.	.	.	.	.	.	.	8ff#	.	.
.	.	.	.	8gg	.	.	.	.	.	.	.	.	8gg	.	.
=140	=140	=140	=140	=140	=140	=140	=140	=140	=140	=140	=140	=140	=140	=140	=140
2r	2r	4b]	2cc#	8ee	2r	2r	2r	2r	2r	2r	2r	4b]	8ee	2ccc#	2ccc#
.	.	.	.	8dd	.	.	.	.	.	.	.	.	8dd	.	.
.	.	[4a	.	8ee	.	.	.	.	.	.	.	[4a	8ee	.	.
.	.	.	.	8ff#	.	.	.	.	.	.	.	.	8ff#	.	.
=141	=141	=141	=141	=141	=141	=141	=141	=141	=141	=141	=141	=141	=141	=141	=141
4r	4r	4a]	2b	8dd	2r	2r	2r	2r	2r	4r	4r	4a]	8dd	2bb	2bb
.	.	.	.	8cc#	.	.	.	.	.	.	.	.	8cc#	.	.
8r	8r	8g	.	8dd	.	.	.	.	.	8r	8r	8g	8dd	.	.
8EE	8E	8f#	.	8ee	.	.	.	.	.	8E	8E	8f#	8ee	.	.
=142	=142	=142	=142	=142	=142	=142	=142	=142	=142	=142	=142	=142	=142	=142	=142
8AA	8A	4e	4g	4cc#	2r	2r	2r	2r	2r	8A	8A	4e	4cc#	4gg	4gg
8GG	8G	.	.	.	.	.	.	.	.	8G	8G	.	.	.	.
8AA	8A	8d	4f#	[4dd	.	.	.	.	.	8A	8A	4r	[4dd	4ff#	4ff#
8BB	8B	8b	.	.	.	.	.	.	.	8B	8B	.	.	.	.
=143	=143	=143	=143	=143	=143	=143	=143	=143	=143	=143	=143	=143	=143	=143	=143
8GG	8G	4b	2e	4dd]	2r	2r	2r	2r	2r	8G	8G	2ee	4dd]	4ee	4ee
8FF#	8F#	.	.	.	.	.	.	.	.	8F#	8F#	.	.	.	.
8GG	8G	[4a	.	[4cc#	.	.	.	.	.	8G	8G	.	[4cc#	[4ccc#	[4ccc#
8AA	8A	.	.	.	.	.	.	.	.	8A	8A	.	.	.	.
=144	=144	=144	=144	=144	=144	=144	=144	=144	=144	=144	=144	=144	=144	=144	=144
8FF#	8F#	4a]	2d	4cc#]	2r	2r	2r	2r	2r	8F#	8F#	2dd	4cc#]	4ccc#]	4ccc#]
8EE	8E	.	.	.	.	.	.	.	.	8E	8E	.	.	.	.
8FF#	8F#	[4g	.	[4b	.	.	.	.	.	8F#	8F#	.	[4b	[4bb	[4bb
8GG	8G	.	.	.	.	.	.	.	.	8G	8G	.	.	.	.
=145	=145	=145	=145	=145	=145	=145	=145	=145	=145	=145	=145	=145	=145	=145	=145
8EE	8E	4g]	2c#	4b]	2r	2r	2r	2r	2r	8E	8E	2cc#	4b]	4bb]	4bb]
8DD	8D	.	.	.	.	.	.	.	.	8D	8D	.	.	.	.
8EE	8E	8f#	.	4a#	.	.	.	.	.	8E	8E	.	4a#	4aa#	4aa#
8FF#	8F#	8e	.	.	.	.	.	.	.	8F#	8F#	.	.	.	.
=146	=146	=146	=146	=146	=146	=146	=146	=146	=146	=146	=146	=146	=146	=146	=146
8DD	8D	8d	8f#	8b	2r	2r	2r	2r	2r	8D	8D	8ff#	8b	8bb	8bb
8EE	8E	8e	8g	8a#	.	.	.	.	.	8E	8E	8gg	8a#	8aa#	8aa#
8DD	8D	8d	8f#	8b	.	.	.	.	.	8D	8D	8ff#	8b	8bb	8bb
8CC#	8C#	8c#	8e	8cc#	.	.	.	.	.	8C#	8C#	8cc#	8cc#	8ccc#	8ccc#
=147	=147	=147	=147	=147	=147	=147	=147	=147	=147	=147	=147	=147	=147	=147	=147
2BBB	2BB	4B	8f#	2dd	2r	2r	2r	2r	2r	2BB	2BB	8ff#	2dd	2ddd	2ddd
.	.	.	8e#	.	.	.	.	.	.	.	.	8ee#	.	.	.
.	.	4r	8f#	.	.	.	.	.	.	.	.	8ff#	.	.	.
.	.	.	8g#	.	.	.	.	.	.	.	.	8gg#	.	.	.
=148	=148	=148	=148	=148	=148	=148	=148	=148	=148	=148	=148	=148	=148	=148	=148
2BB	2B	4.g#	4.e#	8cc#	2r	2r	2r	2r	2r	2B	2B	4.ee#	8cc#	8ccc#	8ccc#
.	.	.	.	8b#	.	.	.	.	.	.	.	.	8b#	8bb#	8bb#
.	.	.	.	8cc#	.	.	.	.	.	.	.	.	8cc#	8ccc#	8ccc#
.	.	8e#	8g#	8ee#	.	.	.	.	.	.	.	8gg#	8ee#X	8ee#	8ee#
=149	=149	=149	=149	=149	=149	=149	=149	=149	=149	=149	=149	=149	=149	=149	=149
4.AA	4.A	4c#	4.cc#	8ff#	2r	2r	2r	2ff#	[2aa	4.A	4.A	4.cc#	8ff#	8ff#	8ff#
.	.	.	.	8ee#	.	.	.	.	.	.	.	.	8ee#	8ee#	8ee#
.	.	8a	.	8ff#	.	.	.	.	.	.	.	.	8ff#	8ff#	8ff#
8GG#	8G#	8g#	8b	8gg#	.	.	.	.	.	8G#	8G#	8b	8gg#	8gg#	8gg#
=150	=150	=150	=150	=150	=150	=150	=150	=150	=150	=150	=150	=150	=150	=150	=150
4.FF#	4.F#	4.f#	4.a	8aa	2r	2r	2r	2ff#	2aa_	4.F#	4.F#	4.a	8aa	8aa	8aa
.	.	.	.	8ee#	.	.	.	.	.	.	.	.	8ee#	8ee#	8ee#
.	.	.	.	8ff#	.	.	.	.	.	.	.	.	8ff#	8ff#	8ff#
8EE	8E	8en	8g#	8gg#	.	.	.	.	.	8E	8E	8g#	8gg#X	8gg#	8gg#
=151	=151	=151	=151	=151	=151	=151	=151	=151	=151	=151	=151	=151	=151	=151	=151
4.DD	4.D	4.d	4.f#	8aa	2r	2r	2r	2ff#	2aa_	4.D	4.D	4.f#	8aa	8aa	8aa
.	.	.	.	8ee#	.	.	.	.	.	.	.	.	8ee#	8ee#	8ee#
.	.	.	.	8ff#	.	.	.	.	.	.	.	.	8ff#	8ff#	8ff#
8CC#	8C#	8c#	8en	8gg#	.	.	.	.	.	8C#	8C#	8en	8gg#	8gg#	8gg#
=152	=152	=152	=152	=152	=152	=152	=152	=152	=152	=152	=152	=152	=152	=152	=152
[2BBB#	[2BB#	[2B#	[2d#	8aa	2r	2r	2r	4ff#	4aa]	[2BB#	[2BB#	2d#	8aa	8aa	8aa
.	.	.	.	8gg#	.	.	.	.	.	.	.	.	8gg#	8gg#	8gg#
.	.	.	.	8ff#	.	.	.	4ryy	4r	.	.	.	8ff#	8ff#	8ff#
.	.	.	.	8gg#	.	.	.	.	.	.	.	.	8gg#	8gg#	8gg#
=153	=153	=153	=153	=153	=153	=153	=153	=153	=153	=153	=153	=153	=153	=153	=153
2BBB#]	2BB#]	2B#]	2d#]	8aa	2r	2r	2r	2r	2r	2BB#]	2BB#]	2dd#	8aa	8aa	8aa
.	.	.	.	8gg#	.	.	.	.	.	.	.	.	8gg#	8gg#	8gg#
.	.	.	.	8aa	.	.	.	.	.	.	.	.	8aa	8aa	8aa
.	.	.	.	8ff#	.	.	.	.	.	.	.	.	8ff#	8ff#	8ff#
=154	=154	=154	=154	=154	=154	=154	=154	=154	=154	=154	=154	=154	=154	=154	=154
4CC#	4C#	4c#	4c#	4ccc#	2r	2r	2r	2r	2r	4C#	4C#	4cc#	4ee#	4ccc#	4ccc#
4r	4r	8r	8r	8cc#	.	.	.	.	.	8C#	8C#	8ryy	8r	8cc#	8cc#
.	.	8e#	8g#	8cc#	.	.	.	.	.	8C#	8C#	8ee#X	8gg#	8cc#	8cc#
=155	=155	=155	=155	=155	=155	=155	=155	=155	=155	=155	=155	=155	=155	=155	=155
2r	2r	8f#	8a	4ccc#	2r	2r	2r	2r	2r	4c#	4c#	8ff#	8aa	4ccc#	4ccc#
.	.	8e#	8g#	.	.	.	.	.	.	.	.	8ee#	8gg#	.	.
.	.	8f#	8a	8cc#	.	.	.	.	.	8C#	8C#	8ff#	8aa	8cc#	8cc#
.	.	8g#	8b	8cc#	.	.	.	.	.	8C#	8C#	8gg#X	8bb	8cc#	8cc#
=156	=156	=156	=156	=156	=156	=156	=156	=156	=156	=156	=156	=156	=156	=156	=156
4CC#	4C#	4e#	4g#	4ccc#	2r	2r	2r	2r	2r	4c#	4c#	4ee#	4gg#	4ccc#	4ccc#
4r	4r	8r	8r	8cc#	.	.	.	.	.	8C#	8C#	8ryy	8r	8cc#	8cc#
.	.	8e#	8g#	8cc#	.	.	.	.	.	8C#	8C#	8ee#	8gg#	8cc#	8cc#
=157	=157	=157	=157	=157	=157	=157	=157	=157	=157	=157	=157	=157	=157	=157	=157
2r	2r	8f#	8a	4ccc#	2r	2r	2r	2r	2r	4c#	4c#	8ff#	8aa	4ccc#	4ccc#
.	.	8e#	8g#	.	.	.	.	.	.	.	.	8ee#	8gg#	.	.
.	.	8f#	8a	8cc#	.	.	.	.	.	8C#	8C#	8ff#	8aa	8cc#	8cc#
.	.	8g#	8b	8cc#	.	.	.	.	.	8C#	8C#	8gg#X	8bb	8cc#	8cc#
=158	=158	=158	=158	=158	=158	=158	=158	=158	=158	=158	=158	=158	=158	=158	=158
4C#	4c#	4e#	4g#	4ccc#	2r	2r	2r	2r	2r	4c#	4c#	4ee#	4gg#	4ccc#	4ccc#
8CC#	8C#	8c#	8r	8r	.	.	.	.	.	8ryy	8r	8cc#	8cc#	8r	8r
8CC#	8C#	8c#	8ee#	8gg#	.	.	.	.	.	8E#	8G#	8cc#	8cc#	8gg#	8gg#
=159	=159	=159	=159	=159	=159	=159	=159	=159	=159	=159	=159	=159	=159	=159	=159
4C#	4c#	4cc#	8ff#	8aa	2r	2r	2r	2r	2r	8F#	8A	4ccc#	4ccc#	8aa	8aa
.	.	.	8ee#	8gg#	.	.	.	.	.	8E#	8G#	.	.	8gg#	8gg#
8CC#	8C#	8c#	8ff#	8aa	.	.	.	.	.	8F#	8A	8cc#	8cc#	8aa	8aa
8CC#	8C#	8c#	8gg#	8bb	.	.	.	.	.	8G#X	8B	8cc#	8cc#	8bb	8bb
=160	=160	=160	=160	=160	=160	=160	=160	=160	=160	=160	=160	=160	=160	=160	=160
4C#	4c#	4cc#	4ee#	4gg#	2r	2r	2r	2r	2r	4E#	4G#	4ccc#	4ccc#	4gg#	4gg#
8CC#	8C#	8c#	8r	8r	.	.	.	.	.	8ryy	8r	8cc#	8cc#	8r	8r
8CC#	8C#	8c#	8ee#	8gg#	.	.	.	.	.	8E#	8G#	8cc#	8cc#	8gg#	8gg#
=161	=161	=161	=161	=161	=161	=161	=161	=161	=161	=161	=161	=161	=161	=161	=161
4C#	4c#	4cc#	8ff#	8aa	2r	2r	2r	2r	2r	8F#	8A	4ccc#	4ccc#	8aa	8aa
.	.	.	8ee#	8gg#	.	.	.	.	.	8E#	8G#	.	.	8gg#	8gg#
8CC#	8C#	8c#	8ff#	8aa	.	.	.	.	.	8F#	8A	8cc#	8cc#	8aa	8aa
8CC#	8C#	8c#	8gg#	8bb	.	.	.	.	.	8G#X	8B	8cc#	8cc#	8bb	8bb
=162	=162	=162	=162	=162	=162	=162	=162	=162	=162	=162	=162	=162	=162	=162	=162
4C#	4c#	4cc#	4ee#	4gg#	2r	2r	2r	2r	2r	4E#	4G#	4ccc#	4ccc#	4gg#	4gg#
8CC#	8C#	8c#	8c#	8c#	.	.	.	.	.	8C#	8C#	8cc#	8cc#	8cc#	8cc#
8CC#	8C#	8c#	8c#	8c#	.	.	.	.	.	8C#	8C#	8cc#	8cc#	8cc#	8cc#
=163	=163	=163	=163	=163	=163	=163	=163	=163	=163	=163	=163	=163	=163	=163	=163
4C#	4c#	4cc#	4cc#	4cc#	2r	2r	2r	2r	2r	4c#	4c#	4ccc#	4ccc#	4ccc#	4ccc#
8CC#	8C#	8c#	8c#	8c#	.	.	.	.	.	8C#	8C#	8cc#	8cc#	8cc#	8cc#
8CC#	8C#	8c#	8c#	8c#	.	.	.	.	.	8C#	8C#	8cc#	8cc#	8cc#	8cc#
=164	=164	=164	=164	=164	=164	=164	=164	=164	=164	=164	=164	=164	=164	=164	=164
4C#	4c#	4cc#	4cc#	4cc#	2r	2r	2r	2r	2r	4c#	4c#	4ccc#	4ccc#	4ccc#	4ccc#
4r	4r	4r	4r	4r	.	.	.	.	.	4r	4r	4r	4r	4r	4r
=165	=165	=165	=165	=165	=165	=165	=165	=165	=165	=165	=165	=165	=165	=165	=165
2r	4r	2r	2r	2r	2r	2r	2r	2r	2r	2r	2r	2r	2r	2r	2r
.	8CC#	.	.	.	.	.	.	.	.	.	.	.	.	.	.
.	8CC#	.	.	.	.	.	.	.	.	.	.	.	.	.	.
=166	=166	=166	=166	=166	=166	=166	=166	=166	=166	=166	=166	=166	=166	=166	=166
2r	4C#	2r	2r	2r	2r	2r	2r	2r	2r	2r	2r	2r	2r	2r	2r
.	4r	.	.	.	.	.	.	.	.	.	.	.	.	.	.
=167	=167	=167	=167	=167	=167	=167	=167	=167	=167	=167	=167	=167	=167	=167	=167
2r	4r	2r	2r	2r	2r	2r	2r	2r	2r	2r	2r	2r	2r	2r	2r
.	8CC#	.	.	.	.	.	.	.	.	.	.	.	.	.	.
.	8CC#	.	.	.	.	.	.	.	.	.	.	.	.	.	.
=168	=168	=168	=168	=168	=168	=168	=168	=168	=168	=168	=168	=168	=168	=168	=168
2r	4C#	2r	2r	2r	2r	2r	2r	2r	2r	2r	2r	2r	2r	2r	2r
.	4r	.	.	.	.	.	.	.	.	.	.	.	.	.	.
=169	=169	=169	=169	=169	=169	=169	=169	=169	=169	=169	=169	=169	=169	=169	=169
4r	4r	4r	4r	4r	4r	4r	4r	4r	4r	4r	4r	4r	4r	4r	4r
8DD	8DD	8D	8d	8dd	8D	8dd	8dd	8dd	8dd	8D	8D	8dd	8dd	8dd	8dd
8DD	8DD	8D	8d	8dd	8D	8dd	8dd	8dd	8dd	8D	8D	8dd	8dd	8dd	8dd
=170	=170	=170	=170	=170	=170	=170	=170	=170	=170	=170	=170	=170	=170	=170	=170
4D	4D	4d	4dd	4ddd	4D	4dd	4dd	4dd	4dd	4d	4d	4ddd	4ddd	4ddd	4ddd
4r	4r	4r	4r	4r	4r	4r	4r	4r	4r	4r	4r	4r	4r	4r	4r
=171	=171	=171	=171	=171	=171	=171	=171	=171	=171	=171	=171	=171	=171	=171	=171
2r	2r	2r	2r	4r	2r	2r	2r	2r	2r	2r	2r	2r	2r	2r	2r
.	.	.	.	8a'	.	.	.	.	.	.	.	.	.	.	.
.	.	.	.	8a'	.	.	.	.	.	.	.	.	.	.	.
=172	=172	=172	=172	=172	=172	=172	=172	=172	=172	=172	=172	=172	=172	=172	=172
.	.	.	.	16ddQ	.	.	.	.	.	.	.	.	.	.	.
.	.	.	.	16eeQ	.	.	.	.	.	.	.	.	.	.	.
8D	8d	8d	8f#	4ff#	2r	2r	2r	2r	2r	2r	2r	2r	2r	2r	2r
8r	8r	8r	8r	.	.	.	.	.	.	.	.	.	.	.	.
8D	8d	8d	8g	16ee	.	.	.	.	.	.	.	.	.	.	.
.	.	.	.	16dd	.	.	.	.	.	.	.	.	.	.	.
8r	8r	8r	8r	16cc#	.	.	.	.	.	.	.	.	.	.	.
.	.	.	.	16b	.	.	.	.	.	.	.	.	.	.	.
=173	=173	=173	=173	=173	=173	=173	=173	=173	=173	=173	=173	=173	=173	=173	=173
4.D	4.d	4.d	4.f#	4.a	2r	2r	2r	2r	2r	2r	2r	2r	2r	2r	2r
8D'	8d'	8d	8e#'	8g#'	.	.	.	.	.	.	.	.	.	.	.
=174	=174	=174	=174	=174	=174	=174	=174	=174	=174	=174	=174	=174	=174	=174	=174
.	.	.	.	8bq	.	.	.	.	.	.	.	.	.	.	.
8D	8d	8d	8f#	8a	2r	2r	2r	2r	2r	2r	2r	2r	2r	2r	2r
8D	8d	8d	8e#	8g#	.	.	.	.	.	.	.	.	.	.	.
8D	8d	8d	8f#	8a	.	.	.	.	.	.	.	.	.	.	.
8D	8d	8d	8gn	8b	.	.	.	.	.	.	.	.	.	.	.
=175	=175	=175	=175	=175	=175	=175	=175	=175	=175	=175	=175	=175	=175	=175	=175
4D	4d	4d	4f#	4a	2r	2r	2r	2r	2r	2r	2r	2r	2r	2r	2r
4r	4r	4r	4r	8d'	.	.	.	.	.	.	.	.	.	.	.
.	.	.	.	8d'	.	.	.	.	.	.	.	.	.	.	.
=176	=176	=176	=176	=176	=176	=176	=176	=176	=176	=176	=176	=176	=176	=176	=176
.	.	.	.	16eQ	.	.	.	.	.	.	.	.	.	.	.
.	.	.	.	16f#Q	.	.	.	.	.	.	.	.	.	.	.
2AA#	2A#	2A#	2c#	4g	2r	2r	2r	2r	2r	2r	2r	2r	2r	2r	2r
.	.	.	.	16f#	.	.	.	.	.	.	.	.	.	.	.
.	.	.	.	16e	.	.	.	.	.	.	.	.	.	.	.
.	.	.	.	16d	.	.	.	.	.	.	.	.	.	.	.
.	.	.	.	16c#	.	.	.	.	.	.	.	.	.	.	.
=177	=177	=177	=177	=177	=177	=177	=177	=177	=177	=177	=177	=177	=177	=177	=177
4.BB	4.B	4.B	4.d	4.d	2r	2r	2r	2r	2r	2r	2r	2r	2r	2r	2r
8AA'	8An'	8F#'	8cn'	8d#'	.	.	.	.	.	.	.	.	.	.	.
=178	=178	=178	=178	=178	=178	=178	=178	=178	=178	=178	=178	=178	=178	=178	=178
8GG	8G	8G	8B	8e	2r	2r	2r	2r	2r	2r	2r	2r	2r	2r	2r
8DD#	8D#	8A	8A	8f#	.	.	.	.	.	.	.	.	.	.	.
8EE	8E	8B	8G	8g	.	.	.	.	.	.	.	.	.	.	.
8GGG	8GG	8B'	8e	8b	.	.	.	.	.	.	.	.	.	.	.
=179	=179	=179	=179	=179	=179	=179	=179	=179	=179	=179	=179	=179	=179	=179	=179
4AAA	4AA	4A	8d	8f#	2r	2r	2r	2r	2r	2ryy	4r	2r	2r	2r	2r
.	.	.	8c#X	8e	.	.	.	.	.	.	.	.	.	.	.
4r	4r	4r	4r	8a'	.	.	.	.	.	.	8A'	.	.	.	.
.	.	.	.	8a'	.	.	.	.	.	.	8A'	.	.	.	.
=180	=180	=180	=180	=180	=180	=180	=180	=180	=180	=180	=180	=180	=180	=180	=180
.	.	.	.	16ddQ	.	.	.	.	.	.	16dQ	.	.	.	.
.	.	.	.	16eeQ	.	.	.	.	.	.	16eQ	.	.	.	.
8D	8d	8d	8f#	4ff#	2r	2r	2r	2r	2r	2ryy	4f#	2r	2r	2r	2r
8r	8r	8r	8r	.	.	.	.	.	.	.	.	.	.	.	.
8D	8d	8d	8g	16ee	.	.	.	.	.	.	16e	.	.	.	.
.	.	.	.	16dd	.	.	.	.	.	.	16d	.	.	.	.
8r	8r	8r	8r	16cc#	.	.	.	.	.	.	16c#	.	.	.	.
.	.	.	.	16b	.	.	.	.	.	.	16B	.	.	.	.
=181	=181	=181	=181	=181	=181	=181	=181	=181	=181	=181	=181	=181	=181	=181	=181
4.D	4.d	4.d	4.f#	4.a	2r	2r	2r	2r	2r	2ryy	4.A	2r	2r	2r	2r
8D'	8d'	8d'	8e#'	8g#'	.	.	.	.	.	.	8G#'	.	.	.	.
=182	=182	=182	=182	=182	=182	=182	=182	=182	=182	=182	=182	=182	=182	=182	=182
.	.	.	.	8bq	.	.	.	.	.	.	8Bq	.	.	.	.
8D	8d	8d	8f#	8a	2r	2r	2r	2r	2r	2ryy	8A	2r	2r	2r	2r
8D	8d	8d	8e#	8g#	.	.	.	.	.	.	8G#	.	.	.	.
8D	8d	8d	8f#	8a	.	.	.	.	.	.	8A	.	.	.	.
8D	8d	8d	8gn	8b	.	.	.	.	.	.	8B	.	.	.	.
=183	=183	=183	=183	=183	=183	=183	=183	=183	=183	=183	=183	=183	=183	=183	=183
4D	4d	4d	4f#	4a	2r	2r	2r	2r	2r	2ryy	4A	2r	2r	2r	2r
4r	4r	4r	4r	8d	.	.	.	.	.	.	8D	.	.	.	.
.	.	.	.	8d	.	.	.	.	.	.	8D	.	.	.	.
=184	=184	=184	=184	=184	=184	=184	=184	=184	=184	=184	=184	=184	=184	=184	=184
2BBB-	2BB-	2G	2d	4g	2r	2r	2r	2r	2r	2ryy	4G	2r	2r	2r	2r
.	.	.	.	8e	.	.	.	.	.	.	8E	.	.	.	.
.	.	.	.	8e	.	.	.	.	.	.	8E	.	.	.	.
=185	=185	=185	=185	=185	=185	=185	=185	=185	=185	=185	=185	=185	=185	=185	=185
4AAA	4AA	2A	2c# 2e	4cc#	2r	2r	2r	2r	2r	4r	4c#	2r	4r	2r	2r
4GGG	4GG	.	.	8a	.	.	.	.	.	8A	8A	.	8a	.	.
.	.	.	.	8a	.	.	.	.	.	8A	8A	.	8a	.	.
=186	=186	=186	=186	=186	=186	=186	=186	=186	=186	=186	=186	=186	=186	=186	=186
4FFF#	4FF#	4F#	4d	8aa	2r	2r	2r	2r	2r	4f#	4f#	2r	8aa	4r	4r
.	.	.	.	8aa	.	.	.	.	.	.	.	.	8aa	.	.
8FF#	8F#	4r	8a	16aa	.	.	.	.	.	8F#	8F#	.	16aa	8aa	8aa
.	.	.	.	16gg	.	.	.	.	.	.	.	.	16gg	.	.
8FF#	8F#	.	8a	16ff#	.	.	.	.	.	8F#	8F#	.	16ff#	8aa	8aa
.	.	.	.	16ee	.	.	.	.	.	.	.	.	16ee	.	.
=187	=187	=187	=187	=187	=187	=187	=187	=187	=187	=187	=187	=187	=187	=187	=187
8BB	8B	4r	8dd	4dd	2r	2r	2r	2r	2r	8B	8B	4r	4dd	8ddd	8ddd
8BB	8B	.	8dd	.	.	.	.	.	.	8B	8B	.	.	8ddd	8ddd
16BB	16B	8f#	16dd	8dd	.	.	.	.	.	16B	16B	8f#	8dd	16ddd	16ddd
16AA	16A	.	16cc#	.	.	.	.	.	.	16A	16A	.	.	16ccc#	16ccc#
16GG	16G	8f#	16b	8dd	.	.	.	.	.	16G	16G	8f#	8dd	16bb	16bb
16FF#	16F#	.	16a	.	.	.	.	.	.	16F#	16F#	.	.	16aa	16aa
=188	=188	=188	=188	=188	=188	=188	=188	=188	=188	=188	=188	=188	=188	=188	=188
4EE	4E	8b	4g	8gg	2r	2r	2r	2r	2r	4E	4E	8b	8gg	4gg	4gg
.	.	8b	.	8gg	.	.	.	.	.	.	.	8b	8gg	.	.
8EE	8E	16b	8g	16gg	.	.	.	.	.	8E	8E	16b	16gg	8gg	8gg
.	.	16a	.	16ff#	.	.	.	.	.	.	.	16a	16ff#	.	.
8EE	8E	16g	8g	16ee	.	.	.	.	.	8E	8E	16g	16ee	8gg	8gg
.	.	16f#	.	16dd	.	.	.	.	.	.	.	16f#	16dd	.	.
=189	=189	=189	=189	=189	=189	=189	=189	=189	=189	=189	=189	=189	=189	=189	=189
8AA	8A	4e	8cc#	4cc#	4r	4ryy	4r	4ryy	4r	8A	8A	4e	4cc#	8ccc#	8ccc#
8AA	8A	.	8cc#	.	.	.	.	.	.	8A	8A	.	.	8ccc#	8ccc#
16AA	16A	8e	16cc#	8cc#	8AA	8a	8ee	8a	8ee	16A	16A	8e	8cc#	16ccc#	16ccc#
16GG	16G	.	16b	.	.	.	.	.	.	16G	16G	.	.	16bb	16bb
16FF#	16F#	8e	16a	8cc#	8AA	8a	8ee	8a	8ee	16F#	16F#	8e	8cc#	16aa	16aa
16EE	16E	.	16g	.	.	.	.	.	.	16E	16E	.	.	16gg	16gg
=190	=190	=190	=190	=190	=190	=190	=190	=190	=190	=190	=190	=190	=190	=190	=190
4DD	4D	8a	4f#	8ff#	4D	4dd	4ff#	4dd	4ff#	4D	4D	8a	8ff#	4ff#	4ff#
.	.	8a	.	8ff#	.	.	.	.	.	.	.	8a	8ff#	.	.
8DD	8D	16a	8f#	16ff#	8D	8dd	8ff#	8dd	8ff#	8D	8D	16a	16ff#	8ff#	8ff#
.	.	16g	.	16ee	.	.	.	.	.	.	.	16g	16ee	.	.
8DD	8D	16f#	8f#	16dd	8D	8dd	8ff#	8dd	8ff#	8D	8D	16f#	16dd	8ff#	8ff#
.	.	16e	.	16cc#	.	.	.	.	.	.	.	16e	16cc#	.	.
=191	=191	=191	=191	=191	=191	=191	=191	=191	=191	=191	=191	=191	=191	=191	=191
4GG	4G	4d	8b	8b	4D	4dd	4dd	4dd	4dd	4G	4G	4d	8b	8bb	8bb
.	.	.	8b	16bb	.	.	.	.	.	.	.	.	16bb	8bb	8bb
.	.	.	.	16aa	.	.	.	.	.	.	.	.	16aa	.	.
8GG	8G	8d	16b	16gg	4r	4ryy	4r	4ryy	4r	8G	8G	16b	16gg	16bb	16bb
.	.	.	16a	16ff#	.	.	.	.	.	.	.	16a	16ff#	16aa	16aa
8GG	8G	8d	16g	16ee	.	.	.	.	.	8G	8G	16g	16ee	16gg	16gg
.	.	.	16f#	16dd	.	.	.	.	.	.	.	16f#	16dd	16ff#	16ff#
=192	=192	=192	=192	=192	=192	=192	=192	=192	=192	=192	=192	=192	=192	=192	=192
[2AA	[2A	[2A	2e	4cc#	2r	2r	2r	2r	2r	2A	2A	2e	4cc#	2ee	2ee
.	.	.	.	8a	.	.	.	.	.	.	.	.	8a	.	.
.	.	.	.	8a	.	.	.	.	.	.	.	.	8a	.	.
=193	=193	=193	=193	=193	=193	=193	=193	=193	=193	=193	=193	=193	=193	=193	=193
2AA_	2A_	2A_	2g	4cc#	2r	2r	2r	2r	2r	[2AA	[2AA	2g	4cc#	2ee	2gg
.	.	.	.	8a	.	.	.	.	.	.	.	.	8a	.	.
.	.	.	.	8a	.	.	.	.	.	.	.	.	8a	.	.
=194	=194	=194	=194	=194	=194	=194	=194	=194	=194	=194	=194	=194	=194	=194	=194
2AA_	2A_	2A_	2f#	4dd	2r	2r	2r	2r	2r	2AA]	2AA]	2f#	4dd	2dd	2ff#
.	.	.	.	8a	.	.	.	.	.	.	.	.	8a	.	.
.	.	.	.	8a	.	.	.	.	.	.	.	.	8a	.	.
=195	=195	=195	=195	=195	=195	=195	=195	=195	=195	=195	=195	=195	=195	=195	=195
2AA_	2A_	2A]	2fn	4dd	2r	2r	2r	2r	2r	2A	2A	2fn	4dd	2ffn	2ddd
.	.	.	.	8a	.	.	.	.	.	.	.	.	8a	.	.
.	.	.	.	8a	.	.	.	.	.	.	.	.	8a	.	.
=196	=196	=196	=196	=196	=196	=196	=196	=196	=196	=196	=196	=196	=196	=196	=196
2AA;]	2A;]	2Fn;	2fn;y 2ccn;	2ee-;	2r;	2r;	2r;	2r;	2r;	2cn;	2cn;	2fn;y	2ee-;	2ffn;y	2eee-;
=197	=197	=197	=197	=197	=197	=197	=197	=197	=197	=197	=197	=197	=197	=197	=197
2r	2r	2r	2r	4r	2r	2r	2r	2r	2r	2r	2r	2r	2r	2r	2r
.	.	.	.	8ccn'	.	.	.	.	.	.	.	.	.	.	.
.	.	.	.	8cc'	.	.	.	.	.	.	.	.	.	.	.
=198	=198	=198	=198	=198	=198	=198	=198	=198	=198	=198	=198	=198	=198	=198	=198
4AA	4A	4A	4fn	4ee-	2r	2r	2r	2r	2r	2r	2r	2r	2r	2r	2r
4r	4r	4r	4r	8ccn'	.	.	.	.	.	.	.	.	.	.	.
.	.	.	.	8cc'	.	.	.	.	.	.	.	.	.	.	.
=199	=199	=199	=199	=199	=199	=199	=199	=199	=199	=199	=199	=199	=199	=199	=199
4AA	4A	4A	4fn	4ee-	2r	2r	2r	2r	2r	2r	2r	2r	2r	2r	2r
4r	4r	4r	4r	8ccn'	.	.	.	.	.	.	.	.	.	.	.
.	.	.	.	8cc'	.	.	.	.	.	.	.	.	.	.	.
=200	=200	=200	=200	=200	=200	=200	=200	=200	=200	=200	=200	=200	=200	=200	=200
8AA	8A	8A	8fn	8ee-'	2r	2r	2r	2r	2r	2r	2r	2r	2r	2r	2r
8r	8r	8r	8r	8ccn'	.	.	.	.	.	.	.	.	.	.	.
8AA	8A	8A	8f	8ee-'	.	.	.	.	.	.	.	.	.	.	.
8r	8r	8r	8r	8cc'	.	.	.	.	.	.	.	.	.	.	.
=201	=201	=201	=201	=201	=201	=201	=201	=201	=201	=201	=201	=201	=201	=201	=201
8AA	8A	8A	8fn	8ee-'	2r	2r	2r	2r	2r	2r	4r	2r	2r	2r	4r
8r	8r	8r	8r	8ccn'	.	.	.	.	.	.	.	.	.	.	.
4r	4r	4r	4r	8fn'	.	.	.	.	.	.	8Fn'	.	.	.	8ffn'
.	.	.	.	8f'	.	.	.	.	.	.	8F'	.	.	.	8ff'
=202	=202	=202	=202	=202	=202	=202	=202	=202	=202	=202	=202	=202	=202	=202	=202
.	.	.	.	16b-Q	.	.	.	.	.	.	16B-Q	.	.	.	16bb-Q
.	.	.	.	16ccnQ	.	.	.	.	.	.	16cnQ	.	.	.	16cccnQ
8BBB-	8BB-	8Fn	8d	4dd	2r	2r	2r	2r	2r	2r	4d	2r	2r	2r	4ddd
8r	8r	8r	8r	.	.	.	.	.	.	.	.	.	.	.	.
8BBB-	8BB-	8G	8e-	16ccn	.	.	.	.	.	.	16cn	.	.	.	16cccn
.	.	.	.	16b-X	.	.	.	.	.	.	16B-X	.	.	.	16bb-X
8r	8r	8r	8r	16a	.	.	.	.	.	.	16A	.	.	.	16aa
.	.	.	.	16g	.	.	.	.	.	.	16G	.	.	.	16gg
=203	=203	=203	=203	=203	=203	=203	=203	=203	=203	=203	=203	=203	=203	=203	=203
4.BBB-	4.BB-	4Fn	4.d	4.fn	2r	2r	2r	2r	2r	2r	4.Fn	2r	2r	2r	4.ffn
.	.	4r	.	.	.	.	.	.	.	.	.	.	.	.	.
8BBB-	8BB-	.	8c#X'	8en'	.	.	.	.	.	.	8E'	.	.	.	8ee
=204	=204	=204	=204	=204	=204	=204	=204	=204	=204	=204	=204	=204	=204	=204	=204
8BBB-	8BB-	8B-	8d	8fn	2r	2r	2r	2r	2r	2r	8Fn	2r	2r	2r	8ffn
8BBB-	8BB-	8B-	8c#X	8e	.	.	.	.	.	.	8E	.	.	.	8ee
8BBB-	8BB-	8B-	8d	8f	.	.	.	.	.	.	8F	.	.	.	8ff
8BBB-	8BB-	8B-	8e-	8g	.	.	.	.	.	.	8G	.	.	.	8gg
=205	=205	=205	=205	=205	=205	=205	=205	=205	=205	=205	=205	=205	=205	=205	=205
8BBB-	8BB-	8B-	8d	8fn	2r	2r	2r	2r	2r	4r	8Fn	4ryy	4r	4r	8ffn
8r	8r	8r	8r	8r	.	.	.	.	.	.	8r	.	.	.	8r
8AAA-	8AA-	8A-	8cn	8A- 8f#	.	.	.	.	.	8AA-	8AA-	8ccn	8ff#X	8ff#	8ff#
8r	8r	8r	8r	8r	.	.	.	.	.	8ryy	8r	8ryy	8r	8ryy	8r
=206	=206	=206	=206	=206	=206	=206	=206	=206	=206	=206	=206	=206	=206	=206	=206
8GGG	8GG	8G	8Bn	8G 8g	2r	2r	2r	2r	2r	8GG	8GG	8bn	8gg	8gg	8gg
8r	8r	8r	8r	8r	.	.	.	.	.	8ryy	8r	8ryy	8r	8ryy	8r
8GGG	8GG	8G	8d 8b 8gg	8dd 8bbn	.	.	.	.	.	8GG	8GG	8dd	8bbn	8bb	8bbn
8r	8r	8r	8r	8r	.	.	.	.	.	8ryy	8r	8ryy	8r	8ryy	8r
=207	=207	=207	=207	=207	=207	=207	=207	=207	=207	=207	=207	=207	=207	=207	=207
8GGG	8GG	8Bn	8dd 8ffn	8dd 8ddd	2r	2r	2r	2r	2r	4GG	4GG	8ffn	8ddd	8ddd	8ddd
8r	8r	8r	8r	8r	.	.	.	.	.	.	.	8ryy	8r	8r	8r
8r	8r	8r	8r	8r	.	.	.	.	.	4r	8r	4ryy	4r	4r	8r
8BB	8Bn	8B	8fn	8g	.	.	.	.	.	.	8Bn	.	.	.	8gg
=208	=208	=208	=208	=208	=208	=208	=208	=208	=208	=208	=208	=208	=208	=208	=208
8C	8cn	8cn	8e	8g	2r	2r	2r	2r	2r	2r	8cn	2r	2r	2r	8gg
8C	8c	8c	8d#	8f#X	.	.	.	.	.	.	8c	.	.	.	8ff#X
8C	8c	8c	8e	8g	.	.	.	.	.	.	8c	.	.	.	8gg
8C	8c	8c	8fn	8a	.	.	.	.	.	.	8c	.	.	.	8aa
=209	=209	=209	=209	=209	=209	=209	=209	=209	=209	=209	=209	=209	=209	=209	=209
8C	8cn	8cn	8e	8g	2r	2r	2r	2r	2r	4r	8cn	4ryy	4r	4r	8gg
8r	8r	8r	8r	8r	.	.	.	.	.	.	8r	.	.	.	8r
8BBB-	8BB-	8B-	8dn	8g#	.	.	.	.	.	8BB-	8BB-	8dd	8gg#	8gg#	8gg#
8r	8r	8r	8r	8r	.	.	.	.	.	8ryy	8r	8ryy	8r	8ryy	8r
=210	=210	=210	=210	=210	=210	=210	=210	=210	=210	=210	=210	=210	=210	=210	=210
8AAA	8AA	8A	8c#X	8a	8AA	8a	8aa	8a	8aa	8AA	8AA	8cc#X	8aa	8aa	8aa
8r	8r	8r	8r	8r	8r	8ryy	8r	8ryy	8r	8r	8r	8ryy	8r	8r	8r
8AAA	8AA	8A	8a 8aa	8a 8ccc#	8AA	8a	8aa	8a	8aa	8AA	8AA	8cc#	8ee	8ccc#	8ccc#
8r	8r	8r	8r	8r	8r	8ryy	8r	8ryy	8r	8r	8r	8ryy	8r	8r	8r
=211	=211	=211	=211	=211	=211	=211	=211	=211	=211	=211	=211	=211	=211	=211	=211
4AAA	4AA	4c#X	8a 8gg	8a 8eee	4AA	4a	4aa	4a	4aa	4AA	4AA	8cc#	8cc#	8eee	8eee
.	.	.	8r	8r	.	.	.	.	.	.	.	8ryy	8r	8r	8r
4r	4r	4r	4r	8c#	4r	4ryy	4r	4ryy	4r	4r	4r	4ryy	4r	8cc#	8cc#
.	.	.	.	8c#	.	.	.	.	.	.	.	.	.	8cc#	8cc#
=212	=212	=212	=212	=212	=212	=212	=212	=212	=212	=212	=212	=212	=212	=212	=212
4AAA	4AA	4e	4a	4a	4AA	4a	4aa	4a	4aa	4AA	4AA	4ee	4aa	4aa	4aa
4r	4r	4r	4r	8d	4r	4ryy	4r	4ryy	4r	4r	4r	4ryy	4r	8dd	8dd
.	.	.	.	8d	.	.	.	.	.	.	.	.	.	8dd	8dd
=213	=213	=213	=213	=213	=213	=213	=213	=213	=213	=213	=213	=213	=213	=213	=213
4AAA	4AA	4d	4g#	4b	4AA	4a	4aa	4a	4aa	4AA	4AA	4dd	4gg#	4bb	4bb
4r	4r	4r	4r	8e	4r	4ryy	4r	4ryy	4r	4r	4r	4ryy	4r	8ee	8ee
.	.	.	.	8e	.	.	.	.	.	.	.	.	.	8ee	8ee
=214	=214	=214	=214	=214	=214	=214	=214	=214	=214	=214	=214	=214	=214	=214	=214
4AAA	4AA	4e	4gn	4cc#	4AA	4a	4aa	4a	4aa	4AA	4AA	4ee	4ggn	4ccc#	4ccc#
4r	4r	4r	4r	8f#	4r	4ryy	4r	4ryy	4r	4r	4r	4ryy	4r	8ff#	8ff#
.	.	.	.	8f#	.	.	.	.	.	.	.	.	.	8ff#	8ff#
=215	=215	=215	=215	=215	=215	=215	=215	=215	=215	=215	=215	=215	=215	=215	=215
4AAA	4AA	4d	4f#	4dd	4AA	4a	4aa	4a	4aa	4AA	4AA	4dd	4ff#	4ddd	4ddd
4r	4r	4r	4r	4r	4r	4ryy	4r	4ryy	4r	4r	4r	4ryy	4r	4r	4r
=216	=216	=216	=216	=216	=216	=216	=216	=216	=216	=216	=216	=216	=216	=216	=216
2r	2r	2r	2r	4r	2r	2r	2r	2r	2r	2r	2r	2r	2r	2r	2r
.	.	.	.	8g	.	.	.	.	.	.	.	.	.	.	.
.	.	.	.	8g	.	.	.	.	.	.	.	.	.	.	.
=217	=217	=217	=217	=217	=217	=217	=217	=217	=217	=217	=217	=217	=217	=217	=217
2r	2r	4c#	4g	4ee	2r	2r	2r	2r	2r	2r	2r	2r	2r	2r	2r
.	.	4r	4r	4r	.	.	.	.	.	.	.	.	.	.	.
=218	=218	=218	=218	=218	=218	=218	=218	=218	=218	=218	=218	=218	=218	=218	=218
2r	2r	2r	2r	4r	2r	2r	2r	2r	2r	2r	2r	2r	2r	2r	2r
.	.	.	.	8g	.	.	.	.	.	.	.	.	.	.	.
.	.	.	.	8g	.	.	.	.	.	.	.	.	.	.	.
=219	=219	=219	=219	=219	=219	=219	=219	=219	=219	=219	=219	=219	=219	=219	=219
2r	2r	2r	2r	4ee	2r	2r	2r	2r	2r	2r	2r	2r	2r	2r	2r
.	.	.	.	4r	.	.	.	.	.	.	.	.	.	.	.
=220	=220	=220	=220	=220	=220	=220	=220	=220	=220	=220	=220	=220	=220	=220	=220
2r	2r	2r	2r	4r	2r	2r	2r	2r	2r	2r	2r	2r	2r	2r	2r
.	.	.	.	8g'	.	.	.	.	.	.	.	.	.	.	.
.	.	.	.	8g'	.	.	.	.	.	.	.	.	.	.	.
=221	=221	=221	=221	=221	=221	=221	=221	=221	=221	=221	=221	=221	=221	=221	=221
2r	2r	2r	2r	4ee'	2r	2r	2r	2r	2r	2r	2r	2r	2r	2r	2r
.	.	.	.	8g#'	.	.	.	.	.	.	.	.	.	.	.
.	.	.	.	8g#'	.	.	.	.	.	.	.	.	.	.	.
=222	=222	=222	=222	=222	=222	=222	=222	=222	=222	=222	=222	=222	=222	=222	=222
2r	2r	2r	2r	4ee	2r	2r	2r	2r	2r	2ryy	4r	2r	2r	2r	2r
.	.	.	.	8a'	.	.	.	.	.	.	8A'	.	.	.	.
.	.	.	.	8a'	.	.	.	.	.	.	8A'	.	.	.	.
=223	=223	=223	=223	=223	=223	=223	=223	=223	=223	=223	=223	=223	=223	=223	=223
2DD	2D	2a	[2d	4ffn	2r	2r	2r	2r	2r	2ryy	4fn	2r	2r	2r	4r
.	.	.	.	16ee	.	.	.	.	.	.	16e	.	.	.	8aa
.	.	.	.	16dd	.	.	.	.	.	.	16d	.	.	.	.
.	.	.	.	16ccn	.	.	.	.	.	.	16cn	.	.	.	8aa
.	.	.	.	16b-	.	.	.	.	.	.	16B-	.	.	.	.
=224	=224	=224	=224	=224	=224	=224	=224	=224	=224	=224	=224	=224	=224	=224	=224
2EE	2E	2B	2d]	8a	2r	2r	2r	2r	2r	2ryy	8A	2r	2r	2r	4bn
.	.	.	.	8g#	.	.	.	.	.	.	8G#	.	.	.	.
.	.	.	.	8gn'	.	.	.	.	.	.	8Gn'	.	.	.	4r
.	.	.	.	8g'	.	.	.	.	.	.	8G'	.	.	.	.
=225	=225	=225	=225	=225	=225	=225	=225	=225	=225	=225	=225	=225	=225	=225	=225
2AAA	2AA	2g	2c#X	4ee	2r	2r	2r	2r	2r	2ryy	4e	2r	2r	2r	4r
.	.	.	.	16dd	.	.	.	.	.	.	16d	.	.	.	8gg
.	.	.	.	16cc#X	.	.	.	.	.	.	16c#X	.	.	.	.
.	.	.	.	16b-	.	.	.	.	.	.	16B-	.	.	.	8gg
.	.	.	.	16a	.	.	.	.	.	.	16A	.	.	.	.
=226	=226	=226	=226	=226	=226	=226	=226	=226	=226	=226	=226	=226	=226	=226	=226
[2DD	[2D	2A	2cn	8g	2r	2r	2r	2r	2r	2ryy	8G	2r	2r	2r	4a
.	.	.	.	8f#X	.	.	.	.	.	.	8F#X	.	.	.	.
.	.	.	.	8dd	.	.	.	.	.	.	8d	.	.	.	8ff#X
.	.	.	.	8dd	.	.	.	.	.	.	8d	.	.	.	8ff#
=227	=227	=227	=227	=227	=227	=227	=227	=227	=227	=227	=227	=227	=227	=227	=227
2DD_	2D_	2B-	4.B-	8a	2r	2r	2r	2r	2r	2ryy	8A	2r	2r	2r	8aa
.	.	.	.	8g	.	.	.	.	.	.	8G	.	.	.	8gg
.	.	.	.	8dd	.	.	.	.	.	.	8d	.	.	.	8gg
.	.	.	8g	8dd	.	.	.	.	.	.	8d	.	.	.	8gg
=228	=228	=228	=228	=228	=228	=228	=228	=228	=228	=228	=228	=228	=228	=228	=228
2DD]	2D]	2F#X	2f#X	8b-	2r	2r	2r	2r	2r	2ryy	8B-	2r	2r	2r	8bb-
.	.	.	.	8a	.	.	.	.	.	.	8A	.	.	.	8aa
.	.	.	.	8dd	.	.	.	.	.	.	8d	.	.	.	8aa
.	.	.	.	8dd	.	.	.	.	.	.	8d	.	.	.	8aa
=229	=229	=229	=229	=229	=229	=229	=229	=229	=229	=229	=229	=229	=229	=229	=229
4GG	4G	4G	8a	8ccn	2r	2r	2r	2r	2r	4r	8cn	4r	4r	4ryy	4r
.	.	.	8g	8b-	.	.	.	.	.	.	8B-	.	.	.	.
8DD	8D	8d	8d	8d	.	.	.	.	.	8D	8D	8dd	8dd	8dd	8dd
8DD	8D	8d	8d	8d	.	.	.	.	.	8D	8D	8dd	8dd	8dd	8dd
=230	=230	=230	=230	=230	=230	=230	=230	=230	=230	=230	=230	=230	=230	=230	=230
16GGQ	16GQ	16gQ	16gQ	16gQ	.	.	.	.	.	16GQ	16GQ	16ggQ	16ggQ	16ggQ	16ggQ
16AAQ	16AQ	16aQ	16aQ	16aQ	.	.	.	.	.	16AQ	16AQ	16aaQ	16aaQ	16aaQ	16aaQ
4BB-	4B-	4b-	4b-	4b-	2r	2r	2r	2r	2r	4B-	4B-	4bb-	4bb-	4bb-	4bb-
16GGQ	16GQ	16gQ	16gQ	16gQ	.	.	.	.	.	16GQ	16GQ	16ggQ	16ggQ	16ggQ	16ggQ
16AAQ	16AQ	16aQ	16aQ	16aQ	.	.	.	.	.	16AQ	16AQ	16aaQ	16aaQ	16aaQ	16aaQ
4BB-	4B-	4b-	4b-	4b-	.	.	.	.	.	4B-	4B-	4bb-	4bb-	4bb-	4bb-
=231	=231	=231	=231	=231	=231	=231	=231	=231	=231	=231	=231	=231	=231	=231	=231
16GGQ	16GQ	16gQ	16gQ	16gQ	.	.	.	.	.	16GQ	16GQ	16ggQ	16ggQ	16ggQ	16ggQ
16AAQ	16AQ	16aQ	16aQ	16aQ	.	.	.	.	.	16AQ	16AQ	16aaQ	16aaQ	16aaQ	16aaQ
8.BB-	8.B-	8.b-	8.b-	8.b-	2r	2r	2r	2r	2r	8.B-	8.B-	8.bb-	8.bb-	8.bb-	8.bb-
16AA'	16A'	16a'	16a'	16a'	.	.	.	.	.	16A'	16A'	16aa'	16aa'	16aa'	16aa'
16GG'	16G'	16g'	16g'	16g'	.	.	.	.	.	16G'	16G'	16gg'	16gg'	16gg'	16gg'
16FF'	16Fn'	16fn'	16fn'	16fn'	.	.	.	.	.	16Fn'	16Fn'	16ffn'	16ffn'	16ffn'	16ffn'
16EE'	16E'	16e'	16e'	16e'	.	.	.	.	.	16E'	16E'	16ee'	16ee'	16ee'	16ee'
16DD'	16D'	16d'	16d'	16d'	.	.	.	.	.	16D'	16D'	16dd'	16dd'	16dd'	16dd'
=232	=232	=232	=232	=232	=232	=232	=232	=232	=232	=232	=232	=232	=232	=232	=232
4AAA	4AA	4A	4c#X	4c#X	4AA	2a	[2ee	2a	[2ee	2A	2A	[2cc#	2cc#	[2aa	[2aa
4r	4r	4r	8A	8A	4r	.	.	.	.	.	.	.	.	.	.
.	.	.	8A	8A	.	.	.	.	.	.	.	.	.	.	.
=233	=233	=233	=233	=233	=233	=233	=233	=233	=233	=233	=233	=233	=233	=233	=233
.	.	.	16c#Q	16c#Q	.	.	.	.	.	.	.	.	.	.	.
.	.	.	16dQ	16dQ	.	.	.	.	.	.	.	.	.	.	.
4AAA	4AA	4E 4c#	4e	4e	4AA	2a	2ee_	2a	2ee_	2c#	2e	2cc#]	2ee	2aa_	2aa_
4r	4r	4r	8A	8A	4r	.	.	.	.	.	.	.	.	.	.
.	.	.	8A	8A	.	.	.	.	.	.	.	.	.	.	.
=234	=234	=234	=234	=234	=234	=234	=234	=234	=234	=234	=234	=234	=234	=234	=234
.	.	.	16c#Q	16eQ	.	.	.	.	.	.	.	.	.	.	.
.	.	.	16dQ	16f#XQ	.	.	.	.	.	.	.	.	.	.	.
4AAA	4AA	4E 4c#	4e	4g	4AA	2a	2ee]	2a	2ee]	2e	2g	2ee	2gg	2aa]	2aa]
4r	4r	4r	8c#	8e	4r	.	.	.	.	.	.	.	.	.	.
.	.	.	8c#	8e	.	.	.	.	.	.	.	.	.	.	.
=235	=235	=235	=235	=235	=235	=235	=235	=235	=235	=235	=235	=235	=235	=235	=235
.	.	.	16c#Q	16aQ	.	.	.	.	.	.	.	.	.	.	.
.	.	.	16dQ	16bQ	.	.	.	.	.	.	.	.	.	.	.
8AAA	8AA	8E 8c#	8e'	8cc#'	8AA	8a	8ee	8a	8ee	8A	8c#	8a	8cc#	8aa	8aa
8r	8r	8r	8c#'	8a'	8r	8ryy	8r	8ryy	8r	8ryy	8r	8ryy	8r	8r	8r
.	.	.	16aQ	16cc#Q	.	.	.	.	.	.	.	.	.	.	.
.	.	.	16bQ	16ddQ	.	.	.	.	.	.	.	.	.	.	.
8AAA	8AA	8E 8c#	8cc#'	8ee'	8AA	8a	8ee	8a	8ee	8c#	8e	8cc#	8ee	8ccc#	8ccc#
8r	8r	8r	8a'	8cc#'	8r	8ryy	8r	8ryy	8r	8ryy	8r	8ryy	8r	8r	8r
=236	=236	=236	=236	=236	=236	=236	=236	=236	=236	=236	=236	=236	=236	=236	=236
.	.	.	16cc#Q	16eeQ	.	.	.	.	.	.	.	.	.	.	.
.	.	.	16ddQ	16ff#Q	.	.	.	.	.	.	.	.	.	.	.
4AAA	4AA	4E 4c#	4ee	4gg	4AA	4a	4ee	4a	4ee	4e	4g	4ee	[2gg	4eee	4eee
4r	4r	4r	4r	4r	4r	4ryy	4r	4ryy	4r	4ryy	4r	4r	.	4r	4r
=237	=237	=237	=237	=237	=237	=237	=237	=237	=237	=237	=237	=237	=237	=237	=237
2r	2r	2r	2r	2r	2r	2r	2r	2r	2r	2r	2r	2r	4gg]	2r	2r
.	.	.	.	.	.	.	.	.	.	.	.	.	4gg#	.	.
=238	=238	=238	=238	=238	=238	=238	=238	=238	=238	=238	=238	=238	=238	=238	=238
4DD	4D	4d	8d'	8f#'	2r	2r	2r	2r	2r	2r	2r	2r	[2aa	2r	2r
.	.	.	8f#'	8a'	.	.	.	.	.	.	.	.	.	.	.
4r	4r	4r	8d'	8f#'	.	.	.	.	.	.	.	.	.	.	.
.	.	.	8f#'	8a'	.	.	.	.	.	.	.	.	.	.	.
=239	=239	=239	=239	=239	=239	=239	=239	=239	=239	=239	=239	=239	=239	=239	=239
2r	2r	2r	8d'	8f#'	2r	2r	2r	2r	2r	2r	2r	2r	4aa]	2r	2r
.	.	.	8f#'	8a'	.	.	.	.	.	.	.	.	.	.	.
.	.	.	.	.	.	.	.	.	.	.	.	.	8ccc#q	.	.
.	.	.	8d'	8f#'	.	.	.	.	.	.	.	.	8bb	.	.
.	.	.	8f#'	8a'	.	.	.	.	.	.	.	.	8aa	.	.
=240	=240	=240	=240	=240	=240	=240	=240	=240	=240	=240	=240	=240	=240	=240	=240
4AAA	4AA	4A	8e	8g	2r	2r	2r	2r	2r	2r	2r	2r	8aa	2r	2r
.	.	.	8g	8a	.	.	.	.	.	.	.	.	8cc#	.	.
4r	4r	4r	8e	8g	.	.	.	.	.	.	.	.	[4cc#	.	.
.	.	.	8g	8a	.	.	.	.	.	.	.	.	.	.	.
=241	=241	=241	=241	=241	=241	=241	=241	=241	=241	=241	=241	=241	=241	=241	=241
2r	2r	2r	8e	8g	2r	2r	2r	2r	2r	2r	2r	2r	4cc#]	2r	2r
.	.	.	8g	8a	.	.	.	.	.	.	.	.	.	.	.
.	.	.	8e	8g	.	.	.	.	.	.	.	.	4cc#	.	.
.	.	.	8g	8a	.	.	.	.	.	.	.	.	.	.	.
=242	=242	=242	=242	=242	=242	=242	=242	=242	=242	=242	=242	=242	=242	=242	=242
8FF#	8F#	8f#	8r	8r	2r	2r	2r	2r	2r	2r	2r	2r	8ee	2r	2r
8r	8r	8r	8d	8a	.	.	.	.	.	.	.	.	8dd	.	.
8CC#	8C#	8c#	8r	8r	.	.	.	.	.	.	.	.	8ff#	.	.
8r	8r	8r	8e	8a	.	.	.	.	.	.	.	.	8ee	.	.
=243	=243	=243	=243	=243	=243	=243	=243	=243	=243	=243	=243	=243	=243	=243	=243
8DD	8D	8d	8r	8r	2r	2r	2r	2r	2r	2r	2r	2r	8gg	2r	2r
8r	8r	8r	8f#	8a	.	.	.	.	.	.	.	.	8ff#	.	.
8GG	8G	8G	8r	8r	.	.	.	.	.	.	.	.	8aa	.	.
8r	8r	8r	8e	8g	.	.	.	.	.	.	.	.	8gg	.	.
=244	=244	=244	=244	=244	=244	=244	=244	=244	=244	=244	=244	=244	=244	=244	=244
4AA	4A	4A	8r	8r	2r	2r	2r	2r	2r	2r	2r	2r	4.ff#	2r	2r
.	.	.	8d	8f#	.	.	.	.	.	.	.	.	.	.	.
4r	4r	4r	8f#	8a	.	.	.	.	.	.	.	.	.	.	.
.	.	.	8d	8f#	.	.	.	.	.	.	.	.	16gg	.	.
.	.	.	.	.	.	.	.	.	.	.	.	.	16ff#	.	.
=245	=245	=245	=245	=245	=245	=245	=245	=245	=245	=245	=245	=245	=245	=245	=245
2r	2r	2r	8c#	4e	2r	2r	2r	2r	2r	2r	2r	2r	8ee	2r	2r
.	.	.	8d	.	.	.	.	.	.	.	.	.	8ff#	.	.
.	.	.	8e	4r	.	.	.	.	.	.	.	.	8gg	.	.
.	.	.	8e'	.	.	.	.	.	.	.	.	.	8gg#	.	.
=246	=246	=246	=246	=246	=246	=246	=246	=246	=246	=246	=246	=246	=246	=246	=246
4DD	4D	4d	8d'	8f#'	2r	2r	2r	2f#	[2dd	2r	2r	2r	[2aa	2r	2r
.	.	.	8f#'	8a'	.	.	.	.	.	.	.	.	.	.	.
4r	4r	4r	8d'	8f#'	.	.	.	.	.	.	.	.	.	.	.
.	.	.	8f#'	8a'	.	.	.	.	.	.	.	.	.	.	.
=247	=247	=247	=247	=247	=247	=247	=247	=247	=247	=247	=247	=247	=247	=247	=247
2r	2r	2r	8d	8f#	2r	2r	2r	2f#	2dd]	2r	2r	2r	4aa]	2r	2r
.	.	.	8f#	8a	.	.	.	.	.	.	.	.	.	.	.
.	.	.	.	.	.	.	.	.	.	.	.	.	8ccc#q	.	.
.	.	.	8d	8f#	.	.	.	.	.	.	.	.	8bb	.	.
.	.	.	8f#	8a	.	.	.	.	.	.	.	.	8aa	.	.
=248	=248	=248	=248	=248	=248	=248	=248	=248	=248	=248	=248	=248	=248	=248	=248
4AA	4A	4A	8e	8g	2r	2r	2r	2a	[2ee	2r	2r	2r	8aa	2r	2r
.	.	.	8g	8a	.	.	.	.	.	.	.	.	8cc#	.	.
4r	4r	4r	8e	8g	.	.	.	.	.	.	.	.	[4cc#	.	.
.	.	.	8g	8a	.	.	.	.	.	.	.	.	.	.	.
=249	=249	=249	=249	=249	=249	=249	=249	=249	=249	=249	=249	=249	=249	=249	=249
2r	2r	2r	8e	8g	2r	2r	2r	2a	2ee]	2r	2r	2r	4cc#]	2r	2r
.	.	.	8g	8a	.	.	.	.	.	.	.	.	.	.	.
.	.	.	8e	8g	.	.	.	.	.	.	.	.	4cc#	.	.
.	.	.	8g	8a	.	.	.	.	.	.	.	.	.	.	.
=250	=250	=250	=250	=250	=250	=250	=250	=250	=250	=250	=250	=250	=250	=250	=250
8FF#	8F#	8F#	8r	8r	2r	2r	2r	4ff#	4aa	2r	2r	2r	8ee	2r	2r
8r	8r	8r	8f#	8a	.	.	.	.	.	.	.	.	8dd	.	.
8GG	8G	8G	8r	8r	.	.	.	4ee	4gg	.	.	.	8ff#	.	.
8r	8r	8r	8e	8g	.	.	.	.	.	.	.	.	8ee	.	.
=251	=251	=251	=251	=251	=251	=251	=251	=251	=251	=251	=251	=251	=251	=251	=251
8AA	8A	8A	8r	8r	2r	2r	2r	4dd	4ff#	2r	2r	4r	8gg	4r	4r
8r	8r	8r	8d	8f#	.	.	.	.	.	.	.	.	8ff#	.	.
8AAA	8AA	8A	8c#	8e	.	.	.	4a	4ee	.	.	8r	8aa	8r	8r
8r	8r	8r	8c#	8cc#	.	.	.	.	.	.	.	8cc#	8cc#	8cc#	8cc#
=252	=252	=252	=252	=252	=252	=252	=252	=252	=252	=252	=252	=252	=252	=252	=252
4DD	4D	8e	8e	8ee	2r	2r	2r	4f#	4dd	2r	2r	8ee	8ee	8ee	8ee
.	.	8d	8d	8dd	.	.	.	.	.	.	.	8dd	8dd	8dd	8dd
4r	4r	8f#	8f#	8ff#	.	.	.	4ryy	4r	.	.	8ff#	8ff#	8ff#	8ff#
.	.	8e	8e	8ee	.	.	.	.	.	.	.	8ee	8ee	8ee	8ee
=253	=253	=253	=253	=253	=253	=253	=253	=253	=253	=253	=253	=253	=253	=253	=253
2r	2r	8g	8g	8gg	2r	2r	2r	2r	2r	2r	2r	8gg	8gg	8gg	8gg
.	.	8f#	8f#	8ff#	.	.	.	.	.	.	.	8ff#	8ff#	8ff#	8ff#
.	.	8a	8a	8aa	.	.	.	.	.	.	.	8aa	8aa	8aa	8aa
.	.	8c#	8c#	8cc#	.	.	.	.	.	.	.	8cc#	8cc#	8cc#	8cc#
=254	=254	=254	=254	=254	=254	=254	=254	=254	=254	=254	=254	=254	=254	=254	=254
2r	2r	8d	8d	8dd	2r	2r	2r	2r	2r	2r	2r	8dd	8dd	8dd	8dd
.	.	8c#	8c#	8cc#	.	.	.	.	.	.	.	8cc#	8cc#	8cc#	8cc#
.	.	8e	8e	8ee	.	.	.	.	.	.	.	8ee	8ee	8ee	8ee
.	.	8d	8d	8dd	.	.	.	.	.	.	.	8dd	8dd	8dd	8dd
=255	=255	=255	=255	=255	=255	=255	=255	=255	=255	=255	=255	=255	=255	=255	=255
4r	4r	8f#	8f#	8ff#	2r	2r	2r	2r	2r	4r	4r	8ff#	8ff#	8ff#	8ff#
.	.	8e	8e	8ee	.	.	.	.	.	.	.	8ee	8ee	8ee	8ee
8r	8r	8g'	8g'	8gg'	.	.	.	.	.	8r	8r	8gg'	8gg'	8gg'	8gg'
8AA#'	8A#'	8A#'	8a#'	8a#'	.	.	.	.	.	8A#	8A#	8a#'	8a#'	8a#'	8a#'
=256	=256	=256	=256	=256	=256	=256	=256	=256	=256	=256	=256	=256	=256	=256	=256
8C#	8c#	8c#	8cc#	8cc#	2r	2r	2r	2r	2r	8c#	8c#	8cc#	8cc#	8cc#	8cc#
8BB	8B	8B	8b	8b	.	.	.	.	.	8B	8B	8b	8b	8b	8b
8D'	8d'	8d'	8dd'	8dd'	.	.	.	.	.	8d'	8d'	8r	8r	8r	8r
8FF#'	8F#'	8f#'	8f#'	8f#'	.	.	.	.	.	8F#'	8F#'	8ff#'	8ff#'	8ff#'	8ff#'
=257	=257	=257	=257	=257	=257	=257	=257	=257	=257	=257	=257	=257	=257	=257	=257
8AA	8An	8an	8an	8an	2r	2r	2r	2r	2r	8An	8An	8aan	8aan	8aan	8aan
8GG	8G	8g	8g	8g	.	.	.	.	.	8G	8G	8gg	8gg	8gg	8gg
8BB'	8B'	8b'	8b'	8b'	.	.	.	.	.	8B'	8B'	8r	8r	8r	8r
8DD#'	8D#'	8d#'	8d#'	8d#'	.	.	.	.	.	8D#'	8D#'	8dd#'	8dd#'	8dd#'	8dd#'
=258	=258	=258	=258	=258	=258	=258	=258	=258	=258	=258	=258	=258	=258	=258	=258
8FF#	8F#	8f#	8f#	8f#	2r	2r	2r	2r	2r	8F#	8F#	8ff#	8ff#	8ff#	8ff#
8EE	8E	8e	8e	8e	.	.	.	.	.	8E	8E	8ee	8ee	8ee	8ee
8GG'	8G'	8g'	8g'	8g'	.	.	.	.	.	8G'	8G'	8gg'	8gg'	8gg'	8gg'
8FF#'	8F#'	8f#'	8f#'	8f#'	.	.	.	.	.	8F#'	8F#'	8ff#'	8ff#'	8ff#'	8ff#'
=259	=259	=259	=259	=259	=259	=259	=259	=259	=259	=259	=259	=259	=259	=259	=259
8EE'	8E'	8e'	8e'	8e'	2r	2r	2r	2r	2r	8E'	8E'	8ee'	8ee'	8ee'	8ee'
8DD'	8Dn'	8dn'	8dn'	8dn'	.	.	.	.	.	8Dn'	8Dn'	8ddn'	8ddn'	8ddn'	8ddn'
8CC#'	8C#'	8c#'	8c#'	8c#'	.	.	.	.	.	8C#'	8C#'	8cc#'	8cc#'	8cc#'	8cc#'
8BBB'	8BB'	8B'	8B'	8B'	.	.	.	.	.	8BB'	8BB'	8b'	8b'	8b'	8b'
=260	=260	=260	=260	=260	=260	=260	=260	=260	=260	=260	=260	=260	=260	=260	=260
[2AAA	[2AA	4A	4A	4A	4.AA	4.a	4.aa	2A	[2a	4AA	4AA	4a	4a	4a	4a
.	.	8r	8r	8r	.	.	.	.	.	8r	8r	8r	8r	8r	8r
.	.	8d#'y 8f#'	8d#'	8f#'	8AA	8a	8aa	.	.	8d#'y	8f#'	8dd#'y	8ff#'	8ff#'	8ff#'
=261	=261	=261	=261	=261	=261	=261	=261	=261	=261	=261	=261	=261	=261	=261	=261
2AAA]	2AA]	8e 8g	8e	8g	8AA	8a	8aa	2A	2a]	8e	8g	8ee	8gg	8gg	8gg
.	.	8d# 8f#	8d#	8f#	8AA	8a	8aa	.	.	8d#	8f#	8dd#	8ff#	8ff#	8ff#
.	.	8e 8g	8e	8g	8AA	8a	8aa	.	.	8e	8g	8ee	8gg	8gg	8gg
.	.	8f# 8a	8f#	8a	8AA	8a	8aa	.	.	8f#	8a	8ff#	8aa	8aa	8aa
=262	=262	=262	=262	=262	=262	=262	=262	=262	=262	=262	=262	=262	=262	=262	=262
[2AAA	[2AA	4e 4g	4e	4g	4.AA	4.a	4.aa	2A	[2a	4e	4g	4ee	4gg	4gg	4gg
.	.	8r	8r	8r	.	.	.	.	.	8ryy	8r	8ryy	8r	8r	8r
.	.	8d#'y 8f#'	8dd#'	8ff#'	8AA	8a	8aa	.	.	8d#'y	8f#'	8dd#'y	8ff#'	8ff#'	8ff#'
=263	=263	=263	=263	=263	=263	=263	=263	=263	=263	=263	=263	=263	=263	=263	=263
2AAA]	2AA]	8e 8g	8ee	8gg	8AA	8a	8aa	2A	2a]	8e	8g	8ee	8gg	8gg	8gg
.	.	8d# 8f#	8dd#	8ff#	8AA	8a	8aa	.	.	8d#	8f#	8dd#	8ff#	8ff#	8ff#
.	.	8e 8g	8ee	8gg	8AA	8a	8aa	.	.	8e	8g	8ee	8gg	8gg	8gg
.	.	8f# 8a	8ff#	8aa	8AA	8a	8aa	.	.	8f#	8a	8ff#	8aa	8aa	8aa
=264	=264	=264	=264	=264	=264	=264	=264	=264	=264	=264	=264	=264	=264	=264	=264
4AAA	4AA	4e 4g	4ee	4gg	4AA	4a	4aa	4A	4a	4e	4g	4ee	4gg	4gg	4gg
4r	4r	8r	8r	8r	4r	4ryy	4r	4ryy	4r	8ryy	8r	8ryy	8r	8r	8r
.	.	8d# 8f#	8dd#	8ff#	.	.	.	.	.	8d#	8f#	8dd#	8ff#	8ff#	8ff#
=265	=265	=265	=265	=265	=265	=265	=265	=265	=265	=265	=265	=265	=265	=265	=265
4AAA	4AA	4e 4g	4ee	4gg	4AA	4a	4aa	4A	4a	4e	4g	4ee	4gg	4gg	4gg
4r	4r	8r	8r	8r	4r	4ryy	4r	4ryy	4r	8ryy	8r	8ryy	8r	8r	8r
.	.	8d# 8f#	8dd#	8ff#	.	.	.	.	.	8d#	8f#	8dd#	8ff#	8ff#	8ff#
=266	=266	=266	=266	=266	=266	=266	=266	=266	=266	=266	=266	=266	=266	=266	=266
4AAA	4AA	4e 4g	4ee	4gg	4AA	4a	4aa	4A	4a	4e	4g	4ee	4gg	4gg	4gg
4r	4r	4r	4r	4r	4r	4ryy	4r	4ryy	4r	4ryy	4r	4ryy	4r	4r	4r
=267	=267	=267	=267	=267	=267	=267	=267	=267	=267	=267	=267	=267	=267	=267	=267
2r	2r	2r	2r	2r	2r	2r	2r	2r	2r	2r	2r	2r	2r	2r	2r
=268	=268	=268	=268	=268	=268	=268	=268	=268	=268	=268	=268	=268	=268	=268	=268
4.DD	4.D	4D 4A 4d	4d 4a 4ff#	4d 4dd 4ddd	4D	4dd	4ff#	4f#	4dd	4D	4D	4a	4ff#	4ddd	4ddd
.	.	8r	8r	8r	4r	4ryy	4r	4ryy	4r	4ryy	4r	4ryy	4r	4r	4r
8CC#'	8C#'	8c#'	8c#'	8c#'	.	.	.	.	.	.	.	.	.	.	.
=269	=269	=269	=269	=269	=269	=269	=269	=269	=269	=269	=269	=269	=269	=269	=269
8DD	8D	8d	8d	8d	16D	2r	2r	2r	2r	2r	2r	2r	2r	2r	2r
.	.	.	.	.	16D	.	.	.	.	.	.	.	.	.	.
8CC#	8C#	8c#	8c#	8c#	16D	.	.	.	.	.	.	.	.	.	.
.	.	.	.	.	16D	.	.	.	.	.	.	.	.	.	.
8DD	8D	8d	8d	8d	16D	.	.	.	.	.	.	.	.	.	.
.	.	.	.	.	16D	.	.	.	.	.	.	.	.	.	.
8EE	8E	8e	8e	8e	16D	.	.	.	.	.	.	.	.	.	.
.	.	.	.	.	16D	.	.	.	.	.	.	.	.	.	.
=270	=270	=270	=270	=270	=270	=270	=270	=270	=270	=270	=270	=270	=270	=270	=270
4DD	4D	4d	4d	4d	16D	2r	2r	2r	2r	2r	2r	4ryy	4r	2r	2r
.	.	.	.	.	16D	.	.	.	.	.	.	.	.	.	.
.	.	.	.	.	16D	.	.	.	.	.	.	.	.	.	.
.	.	.	.	.	16D	.	.	.	.	.	.	.	.	.	.
4r	4r	4r	4r	4r	16D	.	.	.	.	.	.	8ryy	8r	.	.
.	.	.	.	.	16D	.	.	.	.	.	.	.	.	.	.
.	.	.	.	.	16D	.	.	.	.	.	.	8ee#'y	8gg#'	.	.
.	.	.	.	.	16D	.	.	.	.	.	.	.	.	.	.
=271	=271	=271	=271	=271	=271	=271	=271	=271	=271	=271	=271	=271	=271	=271	=271
2r	2r	2r	2r	2r	16D	2r	2r	2r	2r	2r	2r	8ff#	8aa	2r	2r
.	.	.	.	.	16D	.	.	.	.	.	.	.	.	.	.
.	.	.	.	.	16D	.	.	.	.	.	.	8ee#	8gg#	.	.
.	.	.	.	.	16D	.	.	.	.	.	.	.	.	.	.
.	.	.	.	.	16D	.	.	.	.	.	.	8ff#	8aa	.	.
.	.	.	.	.	16D	.	.	.	.	.	.	.	.	.	.
.	.	.	.	.	16D	.	.	.	.	.	.	8ggn	8bb	.	.
.	.	.	.	.	16D	.	.	.	.	.	.	.	.	.	.
=272	=272	=272	=272	=272	=272	=272	=272	=272	=272	=272	=272	=272	=272	=272	=272
4r	4r	4r	4r	4r	16D	2r	2r	2r	2r	2r	2r	4ff#	4aa	2r	2r
.	.	.	.	.	16D	.	.	.	.	.	.	.	.	.	.
.	.	.	.	.	16D	.	.	.	.	.	.	.	.	.	.
.	.	.	.	.	16D	.	.	.	.	.	.	.	.	.	.
8r	8r	8r	8r	8r	16D	.	.	.	.	.	.	4ryy	4r	.	.
.	.	.	.	.	16D	.	.	.	.	.	.	.	.	.	.
8CC#'	8C#'	8c#'	8c#'	8c#'	16D	.	.	.	.	.	.	.	.	.	.
.	.	.	.	.	16D	.	.	.	.	.	.	.	.	.	.
=273	=273	=273	=273	=273	=273	=273	=273	=273	=273	=273	=273	=273	=273	=273	=273
8DD	8D	8d	8d	8d	16D	2r	2r	2r	2r	2r	2r	2r	2r	2r	2r
.	.	.	.	.	16D	.	.	.	.	.	.	.	.	.	.
8CC#	8C#	8c#	8c#	8c#	16D	.	.	.	.	.	.	.	.	.	.
.	.	.	.	.	16D	.	.	.	.	.	.	.	.	.	.
8DD	8D	8d	8d	8d	16D	.	.	.	.	.	.	.	.	.	.
.	.	.	.	.	16D	.	.	.	.	.	.	.	.	.	.
8EE	8E	8e	8e	8e	16D	.	.	.	.	.	.	.	.	.	.
.	.	.	.	.	16D	.	.	.	.	.	.	.	.	.	.
=274	=274	=274	=274	=274	=274	=274	=274	=274	=274	=274	=274	=274	=274	=274	=274
4DD	4D	4d	4d	4d	16D	2r	2r	2r	2r	2r	2r	4ryy	4r	2r	2r
.	.	.	.	.	16D	.	.	.	.	.	.	.	.	.	.
.	.	.	.	.	16D	.	.	.	.	.	.	.	.	.	.
.	.	.	.	.	16D	.	.	.	.	.	.	.	.	.	.
4r	4r	4r	4r	4r	16D	.	.	.	.	.	.	8ryy	8r	.	.
.	.	.	.	.	16D	.	.	.	.	.	.	.	.	.	.
.	.	.	.	.	16D	.	.	.	.	.	.	8ee#	8gg#	.	.
.	.	.	.	.	16D	.	.	.	.	.	.	.	.	.	.
=275	=275	=275	=275	=275	=275	=275	=275	=275	=275	=275	=275	=275	=275	=275	=275
2r	2r	2r	2r	2r	16D	2r	2r	2r	2r	2r	2r	8ff#	8aa	2r	2r
.	.	.	.	.	16D	.	.	.	.	.	.	.	.	.	.
.	.	.	.	.	16D	.	.	.	.	.	.	8ee#	8gg#	.	.
.	.	.	.	.	16D	.	.	.	.	.	.	.	.	.	.
.	.	.	.	.	16D	.	.	.	.	.	.	8ff#	8aa	.	.
.	.	.	.	.	16D	.	.	.	.	.	.	.	.	.	.
.	.	.	.	.	16D	.	.	.	.	.	.	8ggn	8bb	.	.
.	.	.	.	.	16D	.	.	.	.	.	.	.	.	.	.
=276	=276	=276	=276	=276	=276	=276	=276	=276	=276	=276	=276	=276	=276	=276	=276
2r	2r	2r	2r	2r	8D	2r	2r	4ryy	4r	4ryy	4r	4ff#	4aa	2ryy	4r
.	.	.	.	.	8D	.	.	.	.	.	.	.	.	.	.
.	.	.	.	.	8D	.	.	8ryy	8r	8ryy	8r	8ryy	8r	.	8r
.	.	.	.	.	8AA	.	.	8a'y	8ee'	8A'y	8e'	8ee'y	8ggn'	.	8ccc#'
=277	=277	=277	=277	=277	=277	=277	=277	=277	=277	=277	=277	=277	=277	=277	=277
2r	2r	2r	2r	2r	8D	2r	2r	8dd	8ff#	8d	8f#	8dd	8ff#	2ryy	8ddd
.	.	.	.	.	8AA	.	.	8ee	8gg	8c#	8e	8ee	8gg	.	8ccc#
.	.	.	.	.	8D	.	.	8dd	8ff#	8d	8f#	8dd	8ff#	.	8ddd
.	.	.	.	.	8AA	.	.	8a	8ee	8e	8g	8cc#	8gg	.	8eee
=278	=278	=278	=278	=278	=278	=278	=278	=278	=278	=278	=278	=278	=278	=278	=278
2r	2r	2r	2r	2r	8D	2r	2r	4dd	4ff#	4d	4f#	4dd	4ff#	2ryy	4ddd
.	.	.	.	.	8D	.	.	.	.	.	.	.	.	.	.
.	.	.	.	.	8D	.	.	8ryy	8r	8ryy	8r	8ryy	8r	.	8r
.	.	.	.	.	8AA	.	.	8a'y	8ee'	8A'y	8e'	8ee'y	8gg'	.	8ccc#'
=279	=279	=279	=279	=279	=279	=279	=279	=279	=279	=279	=279	=279	=279	=279	=279
2r	2r	2r	2r	2r	8D	2r	2r	8dd	8ff#	8d	8f#	8dd	8ff#	2ryy	8ddd
.	.	.	.	.	8AA	.	.	8ee	8gg	8c#	8e	8ee	8gg	.	8ccc#
.	.	.	.	.	8D	.	.	8dd	8ff#	8d	8f#	8dd	8ff#	.	8ddd
.	.	.	.	.	8AA	.	.	8a	8ee	8e	8g	8cc#	8gg	.	8eee
=280	=280	=280	=280	=280	=280	=280	=280	=280	=280	=280	=280	=280	=280	=280	=280
4r	4r	4r	4r	4r	8D	2r	2r	4dd	4ff#	4d	4f#	4dd	4ff#	2ryy	4ddd
.	.	.	.	.	8D	.	.	.	.	.	.	.	.	.	.
8r	8r	8r	8r	8r	8D	.	.	4ryy	4r	4ryy	4r	4ryy	4r	.	4r
8GG#	8G#	8g#	8g#	8g#	8r	.	.	.	.	.	.	.	.	.	.
=281	=281	=281	=281	=281	=281	=281	=281	=281	=281	=281	=281	=281	=281	=281	=281
8AA	8A	8a	8a	8a	2r	2r	2r	2r	2r	2r	2r	2r	2r	2r	2r
8GG#	8G#	8g#	8g#	8g#	.	.	.	.	.	.	.	.	.	.	.
8AA	8A	8a	8a	8a	.	.	.	.	.	.	.	.	.	.	.
8BB	8B	8b	8b	8b	.	.	.	.	.	.	.	.	.	.	.
=282	=282	=282	=282	=282	=282	=282	=282	=282	=282	=282	=282	=282	=282	=282	=282
8GG	8Gn	8gn	8gn	8gn	2r	2r	2r	2r	2r	2r	2r	2r	2r	2r	2r
8EE#	8E#	8e#	8e#	8e#	.	.	.	.	.	.	.	.	.	.	.
8FF#	8F#	8f#	8f#	8f#	.	.	.	.	.	.	.	.	.	.	.
8DD#	8D#	8d#	8d#	8d#	.	.	.	.	.	.	.	.	.	.	.
=283	=283	=283	=283	=283	=283	=283	=283	=283	=283	=283	=283	=283	=283	=283	=283
8EE	8En	8en	8en	8en	2r	2r	2r	2r	2r	2r	2r	2r	2r	2r	2r
8CC#	8C#	8c#	8c#	8c#	.	.	.	.	.	.	.	.	.	.	.
8DD	8Dn	8dn	8dn	8dn	.	.	.	.	.	.	.	.	.	.	.
8BBB	8BB	8B	8B	8B	.	.	.	.	.	.	.	.	.	.	.
=284	=284	=284	=284	=284	=284	=284	=284	=284	=284	=284	=284	=284	=284	=284	=284
8GGG	8GG	8G	4G	4G	4D	[2dd	2dd	[2dd	2dd	[2G	[2G	2dd	[2bb	[2bb	[2bb
8GG	8G	8g	.	.	.	.	.	.	.	.	.	.	.	.	.
8GG	8G	8g	[4d [4b	[4bb	4r	.	.	.	.	.	.	.	.	.	.
8GG	8G	8g	.	.	.	.	.	.	.	.	.	.	.	.	.
=285	=285	=285	=285	=285	=285	=285	=285	=285	=285	=285	=285	=285	=285	=285	=285
8GGG	8GG	8G	4d] 4b]	4bb]	2r	2dd]	2dd	2dd]	2dd	2G]	2G]	2dd	2bb]	2bb]	2bb]
8GG	8G	8g	.	.	.	.	.	.	.	.	.	.	.	.	.
8GG	8G	8g	4d 4b	4bb	.	.	.	.	.	.	.	.	.	.	.
8GG	8G	8g	.	.	.	.	.	.	.	.	.	.	.	.	.
=286	=286	=286	=286	=286	=286	=286	=286	=286	=286	=286	=286	=286	=286	=286	=286
8GGG	8GG	8G	4e 4cc#	4A	4AA	2a	[2ee	2a	[2ee	[2G	[2G	2ee	[2ccc#	[2aa	[2aa
8GG	8G	8g	.	.	.	.	.	.	.	.	.	.	.	.	.
8GG	8G	8g	[4a [4ee	[4ccc#	4r	.	.	.	.	.	.	.	.	.	.
8GG	8G	8g	.	.	.	.	.	.	.	.	.	.	.	.	.
=287	=287	=287	=287	=287	=287	=287	=287	=287	=287	=287	=287	=287	=287	=287	=287
8GGG	8GG	8G	4a] 4ee]	4ccc#]	2r	2a	2ee]	2a	2ee]	2G]	2G]	2ee	2ccc#]	2aa]	2aa]
8GG	8G	8g	.	.	.	.	.	.	.	.	.	.	.	.	.
8GG	8G	8g	4a 4ee	4ccc#	.	.	.	.	.	.	.	.	.	.	.
8GG	8G	8g	.	.	.	.	.	.	.	.	.	.	.	.	.
=288	=288	=288	=288	=288	=288	=288	=288	=288	=288	=288	=288	=288	=288	=288	=288
8FFF#	8FF#	8F#	8ff#	8ddd	4D	2dd	2ff#	2dd	2ff#	2F#	2F#	2aa	2ddd	2ddd	2ddd
8FF#	8F#	8f#	8aa	8aa	.	.	.	.	.	.	.	.	.	.	.
8FF#	8F#	8f#	8ff#	8ff#	8D	.	.	.	.	.	.	.	.	.	.
8FF#	8F#	8f#	8dd	8dd	8D	.	.	.	.	.	.	.	.	.	.
=289	=289	=289	=289	=289	=289	=289	=289	=289	=289	=289	=289	=289	=289	=289	=289
8GGG	8GG	8G	8bb	8bb	4D	2ee	2gg	2ee	2gg	2G	2G	2gg	2bb	2bb	2bb
8GG	8G	8g	8gg	8gg	.	.	.	.	.	.	.	.	.	.	.
8GG	8G	8g	8ee	8ee	8D	.	.	.	.	.	.	.	.	.	.
8GG	8G	8g	8b	8b	8D	.	.	.	.	.	.	.	.	.	.
=290	=290	=290	=290	=290	=290	=290	=290	=290	=290	=290	=290	=290	=290	=290	=290
8AAA	8AA	8A	8a	8a	4AA	2dd	2ff#	2dd	2ff#	2A	2A	2ff#	2aa	2aa	2aa
8AA	8A	8a	8aa	8aa	.	.	.	.	.	.	.	.	.	.	.
8AA	8A	8a	8ff#	8ff#	8AA	.	.	.	.	.	.	.	.	.	.
8AA	8A	8a	8dd	8dd	8AA	.	.	.	.	.	.	.	.	.	.
=291	=291	=291	=291	=291	=291	=291	=291	=291	=291	=291	=291	=291	=291	=291	=291
8AAA	8AA	8A	8a	8a	4AA	2a	2ee	2a	2ee	2A	2A	2ee	2cc#	2cc#	2cc#
8AA	8A	8a	8g	8g	.	.	.	.	.	.	.	.	.	.	.
8AA	8A	8a	8e	8e	8AA	.	.	.	.	.	.	.	.	.	.
8AA	8A	8a	8c#	8c#	8AA	.	.	.	.	.	.	.	.	.	.
=292	=292	=292	=292	=292	=292	=292	=292	=292	=292	=292	=292	=292	=292	=292	=292
4DD	4D	4d	4d	4d	4D	4d	4dd	4d	4dd	4D	4D	4dd	4dd	4dd	4dd
4r	4r	4r	4r	4r	8D	8d	8dd	8d	8dd	8d	8d	8dd	8dd	4r	4r
.	.	.	.	.	8D	8d	8dd	8d	8dd	8d	8d	8dd	8dd	.	.
=293	=293	=293	=293	=293	=293	=293	=293	=293	=293	=293	=293	=293	=293	=293	=293
.	.	.	.	.	.	16dQ	16ddQ	16dQ	16ddQ	16dQ	16dQ	16ddQ	16ddQ	.	.
.	.	.	.	.	.	16eQ	16eeQ	16eQ	16eeQ	16eQ	16eQ	16eeQ	16eeQ	.	.
2r	2r	2r	2r	2r	4D	4f#	4ff#	4f#	4ff#	4f#	4f#	4ff#	4ff#	2r	2r
.	.	.	.	.	8D	8d	8dd	8d	8dd	8d	8d	8dd	8dd	.	.
.	.	.	.	.	8D	8d	8dd	8d	8dd	8d	8d	8dd	8dd	.	.
=294	=294	=294	=294	=294	=294	=294	=294	=294	=294	=294	=294	=294	=294	=294	=294
2r	2r	2r	2r	4r	4AA'	4A'	4a'y	4A'	4a'y	4A'	4A'	4a'	4a'	4r	4r
.	.	.	.	8a	4r	4ryy	4r	4ryy	4r	4r	4r	4r	4r	8a	8a
.	.	.	.	8a	.	.	.	.	.	.	.	.	.	8a	8a
=295	=295	=295	=295	=295	=295	=295	=295	=295	=295	=295	=295	=295	=295	=295	=295
.	.	.	.	16eeQ	.	.	.	.	.	.	.	.	.	16eeQ	16eeQ
.	.	.	.	16ff#Q	.	.	.	.	.	.	.	.	.	16ff#Q	16ff#Q
2AAAz	2AAz	2A 2g	2e 2cc#	4gg	2r	2r	2r	2r	2r	2r	2r	2r	2r	4gg	4gg
.	.	.	.	16ff#	.	.	.	.	.	.	.	.	.	16ff#	16ff#
.	.	.	.	16ee	.	.	.	.	.	.	.	.	.	16ee	16ee
.	.	.	.	16dd	.	.	.	.	.	.	.	.	.	16dd	16dd
.	.	.	.	16cc#	.	.	.	.	.	.	.	.	.	16cc#	16cc#
=296	=296	=296	=296	=296	=296	=296	=296	=296	=296	=296	=296	=296	=296	=296	=296
4DD	4D	4A 4f#	4f# 4dd	4dd	4r	4ryy	4r	4ryy	4r	4r	4r	4r	4r	4dd	4dd
4r	4r	4r	4r	4r	8D	8d	8dd	8d	8dd	8d	8d	8dd	8dd	4r	4r
.	.	.	.	.	8D	8d	8dd	8d	8dd	8d	8d	8dd	8dd	.	.
=297	=297	=297	=297	=297	=297	=297	=297	=297	=297	=297	=297	=297	=297	=297	=297
.	.	.	.	.	.	16dQ	16ddQ	16dQ	16ddQ	16dQ	16dQ	16ddQ	16ddQ	.	.
.	.	.	.	.	.	16eQ	16eeQ	16eQ	16eeQ	16eQ	16eQ	16eeQ	16eeQ	.	.
2r	2r	2r	2r	2r	4D	4f#	4ff#	4f#	4ff#	4f#	4f#	4ff#	4ff#	2r	2r
.	.	.	.	.	8D	8d	8dd	8d	8dd	8d	8d	8dd	8dd	.	.
.	.	.	.	.	8D	8d	8dd	8d	8dd	8d	8d	8dd	8dd	.	.
=298	=298	=298	=298	=298	=298	=298	=298	=298	=298	=298	=298	=298	=298	=298	=298
2r	2r	2r	2r	4r	4AA'	4A'	4a'y	4A'	4a'y	4A'	4A'	4a'	4a'	4r	4r
.	.	.	.	8a	4r	4ryy	4r	4ryy	4r	4r	4r	4r	4r	8a	8a
.	.	.	.	8a	.	.	.	.	.	.	.	.	.	8a	8a
=299	=299	=299	=299	=299	=299	=299	=299	=299	=299	=299	=299	=299	=299	=299	=299
.	.	.	.	16ggQ	.	.	.	.	.	.	.	.	.	16ggQ	16ggQ
.	.	.	.	16aaQ	.	.	.	.	.	.	.	.	.	16aaQ	16aaQ
2AAA	2AA	2A 2e	2cc# 2gg	4bb	2r	2r	2r	2r	2r	2r	2r	2r	2r	4bb	4bb
.	.	.	.	16aa	.	.	.	.	.	.	.	.	.	16aa	16aa
.	.	.	.	16gg	.	.	.	.	.	.	.	.	.	16gg	16gg
.	.	.	.	16ff#	.	.	.	.	.	.	.	.	.	16ff#	16ff#
.	.	.	.	16ee	.	.	.	.	.	.	.	.	.	16ee	16ee
=300	=300	=300	=300	=300	=300	=300	=300	=300	=300	=300	=300	=300	=300	=300	=300
4DD	4D	4d 4f#	4dd 4ff#	8dd	4D	2f#	2dd	2f#	2dd	4D	4D	2ff#	2ddd	8dd	8dd
.	.	.	.	8ddd	.	.	.	.	.	.	.	.	.	8ddd	8ddd
4r	4r	4r	4r	8aa	4r	.	.	.	.	4r	4r	.	.	8aa	8aa
.	.	.	.	8ff#	.	.	.	.	.	.	.	.	.	8ff#	8ff#
=301	=301	=301	=301	=301	=301	=301	=301	=301	=301	=301	=301	=301	=301	=301	=301
4DD	4D	4A 4f#	4d 4a 4ff#	8dd	4D	2dd	2ff#	2dd	2ff#	4D	4D	2ff#	2aa	8dd	8dd
.	.	.	.	8aa	.	.	.	.	.	.	.	.	.	8aa	8aa
4r	4r	4r	4r	8ff#	4r	.	.	.	.	4r	4r	.	.	8ff#	8ff#
.	.	.	.	8dd	.	.	.	.	.	.	.	.	.	8dd	8dd
=302	=302	=302	=302	=302	=302	=302	=302	=302	=302	=302	=302	=302	=302	=302	=302
8DD	8D	4A 4f#	4d 4a 4ff#	8a	4D	2ff#	2aa	2ff#	2aa	8D	8D	2a	2ff#	8a	8a
8F#	8f#	.	.	8ff#	.	.	.	.	.	8f#	8f#	.	.	8ff#	8ff#
8D	8d	4r	4r	8dd	4r	.	.	.	.	8d	8d	.	.	8dd	8dd
8AA	8A	.	.	8a	.	.	.	.	.	8A	8A	.	.	8a	8a
=303	=303	=303	=303	=303	=303	=303	=303	=303	=303	=303	=303	=303	=303	=303	=303
8FF#	8F#	8d	8ff#	8f#	4D	2dd	2ff#	2dd	2ff#	8F#	8F#	2f#	2dd	8f#	8f#
8D	8d	8dd	8dd	8dd	.	.	.	.	.	8d	8d	.	.	8dd	8dd
8AA	8A	8a	8a	8a	4r	.	.	.	.	8A	8A	.	.	8a	8a
8FF#	8F#	8f#	8f#	8f#	.	.	.	.	.	8F#	8F#	.	.	8f#	8f#
=304	=304	=304	=304	=304	=304	=304	=304	=304	=304	=304	=304	=304	=304	=304	=304
4DD	4D	4d	4d	4d	4D	4f#	4dd	4f#	4dd	4D	4D	4f#	4d	4d	4d
4r	4r	4r	4r	4r	4r	4ryy	4r	4ryy	4r	4r	4r	4ryy	4r	4r	4r
=305	=305	=305	=305	=305	=305	=305	=305	=305	=305	=305	=305	=305	=305	=305	=305
8DD	8D	16D	16d	16d	8D	8dd	8dd	8dd	8dd	8D	8D	16dd	16dd	16ddd	16ddd
.	.	16C#	16c#	16c#	.	.	.	.	.	.	.	16cc#	16cc#	16ccc#	16ccc#
8DD	8D	16D	16d	16d	8D	8dd	8dd	8dd	8dd	8D	8D	16dd	16dd	16ddd	16ddd
.	.	16C#	16c#	16c#	.	.	.	.	.	.	.	16cc#	16cc#	16ccc#	16ccc#
8DD	8D	16D	16d	16d	8D	8dd	8dd	8dd	8dd	8D	8D	16dd	16dd	16ddd	16ddd
.	.	16C#	16c#	16c#	.	.	.	.	.	.	.	16cc#	16cc#	16ccc#	16ccc#
8DD	8D	16D	16d	16d	8D	8dd	8dd	8dd	8dd	8D	8D	16dd	16dd	16ddd	16ddd
.	.	16C#	16c#	16c#	.	.	.	.	.	.	.	16cc#	16cc#	16ccc#	16ccc#
=306	=306	=306	=306	=306	=306	=306	=306	=306	=306	=306	=306	=306	=306	=306	=306
4DD	4D	4D	4d	4d	4D	4dd	4dd	4dd	4dd	4D	4D	4dd	4dd	4ddd	4ddd
4r	4r	4r	4r	4r	4r	4r	4r	4r	4r	4r	4r	4r	4r	4r	4r
=307	=307	=307	=307	=307	=307	=307	=307	=307	=307	=307	=307	=307	=307	=307	=307
8DD	8D	16D	16d	16d	8D	8dd	8dd	8dd	8dd	8D	8D	16dd	16dd	16ddd	16ddd
.	.	16C#	16c#	16c#	.	.	.	.	.	.	.	16cc#	16cc#	16ccc#	16ccc#
8DD	8D	16D	16d	16d	8D	8dd	8dd	8dd	8dd	8D	8D	16dd	16dd	16ddd	16ddd
.	.	16C#	16c#	16c#	.	.	.	.	.	.	.	16cc#	16cc#	16ccc#	16ccc#
8DD	8D	16D	16d	16d	8D	8dd	8dd	8dd	8dd	8D	8D	16dd	16dd	16ddd	16ddd
.	.	16C#	16c#	16c#	.	.	.	.	.	.	.	16cc#	16cc#	16ccc#	16ccc#
8DD	8D	16D	16d	16d	8D	8dd	8dd	8dd	8dd	8D	8D	16dd	16dd	16ddd	16ddd
.	.	16C#	16c#	16c#	.	.	.	.	.	.	.	16cc#	16cc#	16ccc#	16ccc#
=308	=308	=308	=308	=308	=308	=308	=308	=308	=308	=308	=308	=308	=308	=308	=308
4DD	4D	4D	4d	4d	4D	4dd	4dd	4dd	4dd	4D	4D	4dd	4dd	4ddd	4ddd
4DD	4D	4d	4a 4ff#	4a 4ff#	4D	4dd	4ff#	4dd	4ff#	4D	4D	4dd	4ff#	4r	4r
=309	=309	=309	=309	=309	=309	=309	=309	=309	=309	=309	=309	=309	=309	=309	=309
4DD	4D	4d	4a 4aa	4a 4aa	4D	4ff#	4aa	4ff#	4aa	4D	4D	4ff#	4aa	4aa	4aa
4DD	4D	4d	4a 4ff#	4a 4ff#	4D	4dd	4ff#	4dd	4ff#	4D	4D	4dd	4ff#	4ff#	4ff#
=310	=310	=310	=310	=310	=310	=310	=310	=310	=310	=310	=310	=310	=310	=310	=310
4DD	4D	4d	4d 4dd	4d 4dd	4D	4f#	4dd	4f#	4dd	4D	4D	4f#	4dd	4dd	4dd
4r	4r	4r	4r	4r	4r	4ryy	4r	4ryy	4r	4r	4r	4ryy	4r	4r	4r
=311	=311	=311	=311	=311	=311	=311	=311	=311	=311	=311	=311	=311	=311	=311	=311
4DD	4D	4D 4A 4f#	4d 4a 4ff#	4d 4a 4ff#	4D	4f#	4dd	4f#	4dd	4D	4D	4dd	4ff#	4ddd	4ddd
4r	4r	4r	4r	4r	4r	4ryy	4r	4ryy	4r	4r	4r	4ryy	4r	4r	4r
=312	=312	=312	=312	=312	=312	=312	=312	=312	=312	=312	=312	=312	=312	=312	=312
4DD	4D	4D 4A 4f#	4d 4a 4ff#	4d 4a 4ff#	4D	4f#	4dd	4f#	4dd	4D	4D	4dd	4ff#	4ddd	4ddd
4r	4r	4r	4r	4r	4r	4ryy	4r	4ryy	4r	4r	4r	4ryy	4r	4r	4r
==||	==||	==||	==||	==||	==||	==||	==||	==||	==||	==||	==||	==||	==||	==||	==||
*-	*-	*-	*-	*-	*-	*-	*-	*-	*-	*-	*-	*-	*-	*-	*-
!!!CDT: 1732/03/31/-1809/05/31/
!!!CNT: Austrian
!!!PPR: Ernst Eulenburg, Ltd.
!!!PPP: London
!!!PDT: 1880///
!!!AGN: symphony
!!!AST: classical, orchestral
!!!YOR: Ernst Praetorius, editor
!!!RDT: 1995 February 15
!!!YER: March 2012
!!!EEV: 2.0
!!!EFL: 4/48
!!!ENC: Frances Bennion
!!!EED: W.B. Hewlett
!!!ONB: Converted from MuseData Fall 2011 by Andreas Kornstaedt
!!!ONB: Manual editing 2012/02/21/ by Craig Stuart Sapp
!!!YEC: Copyright 1996,2012 Center for Computer Assisted Research in the Humanities
!!!YEM: Rights to all derivative electronic formats reserved.
!!!YEM: Refer to licensing agreement for further details.
